;FLAVOR:Marlin
;TIME:3815
;Filament used: 6.49863m
;Layer height: 0.2
;MINX:69.3
;MINY:56.8
;MINZ:0.3
;MAXX:150.7
;MAXY:163.2
;MAXZ:4.9
;Generated with Cura_SteamEngine 5.4.0
M104 S230
M105
M109 S230
M82 ;absolute extrusion mode
G28 ;Home
G1 Z15.0 F6000 ;Move the platform down 15mm
;Prime the extruder
G92 E0
G1 F200 E3
G92 E0
G92 E0
G92 E0
G1 F1500 E-6.5
;LAYER_COUNT:24
;LAYER:0
M107
G0 F3600 X73.537 Y63.328 Z0.3
;TYPE:SKIRT
G1 F1500 E0
G1 F3000 X74.314 Y62.528 E0.05564
G1 X75.765 Y61.092 E0.15749
G1 X76.743 Y60.383 E0.21775
G1 X78.365 Y59.263 E0.31609
G1 X79.406 Y58.756 E0.37386
G1 X80.389 Y58.298 E0.42796
G1 X81.256 Y57.909 E0.47537
G1 X82.306 Y57.609 E0.52985
G1 X84.294 Y57.087 E0.6324
G1 X85.482 Y56.964 E0.69198
G1 X86.547 Y56.871 E0.74532
G1 X87.431 Y56.812 E0.78952
G1 X88.194 Y56.8 E0.82759
G1 X131.84 Y56.8 E3.0051
G1 X132.697 Y56.818 E3.04786
G1 X133.565 Y56.881 E3.09128
G1 X135.609 Y57.069 E3.19369
G1 X136.762 Y57.359 E3.253
G1 X138.682 Y57.884 E3.35231
G1 X139.734 Y58.355 E3.40981
G1 X140.755 Y58.831 E3.46602
G1 X141.577 Y59.228 E3.51156
G1 X142.519 Y59.867 E3.56835
G1 X144.172 Y61.037 E3.66938
G1 X144.972 Y61.814 E3.72502
G1 X146.408 Y63.265 E3.82687
G1 X147.117 Y64.243 E3.88714
G1 X148.237 Y65.865 E3.98547
G1 X148.744 Y66.906 E4.04324
G1 X149.202 Y67.888 E4.0973
G1 X149.587 Y68.747 E4.14426
G1 X149.909 Y69.874 E4.20274
G1 X150.413 Y71.794 E4.30177
G1 X150.536 Y72.982 E4.36136
G1 X150.629 Y74.046 E4.41465
G1 X150.688 Y74.929 E4.4588
G1 X150.7 Y75.694 E4.49697
G1 X150.7 Y144.34 E7.92173
G1 X150.682 Y145.197 E7.9645
G1 X150.619 Y146.065 E8.00792
G1 X150.43 Y148.114 E8.11057
G1 X150.14 Y149.264 E8.16974
G1 X149.615 Y151.184 E8.26905
G1 X149.134 Y152.258 E8.32776
G1 X148.28 Y154.065 E8.42747
G1 X147.633 Y155.019 E8.48498
G1 X146.463 Y156.672 E8.58602
G1 X145.686 Y157.472 E8.64166
G1 X144.235 Y158.908 E8.7435
G1 X143.257 Y159.617 E8.80377
G1 X141.635 Y160.738 E8.90214
G1 X140.593 Y161.244 E8.95993
G1 X139.617 Y161.699 E9.01365
G1 X138.746 Y162.09 E9.06128
G1 X137.693 Y162.391 E9.11592
G1 X135.706 Y162.913 E9.21842
G1 X134.518 Y163.036 E9.278
G1 X133.453 Y163.129 E9.33134
G1 X132.569 Y163.188 E9.37554
G1 X131.806 Y163.2 E9.41361
G1 X88.16 Y163.2 E11.59112
G1 X87.303 Y163.182 E11.63389
G1 X86.435 Y163.119 E11.6773
G1 X84.386 Y162.93 E11.77996
G1 X83.237 Y162.64 E11.83908
G1 X81.314 Y162.115 E11.93853
G1 X80.253 Y161.639 E11.99655
G1 X78.434 Y160.779 E12.09693
G1 X77.481 Y160.133 E12.15437
G1 X75.828 Y158.963 E12.25541
G1 X75.028 Y158.186 E12.31105
G1 X73.592 Y156.735 E12.41289
G1 X72.883 Y155.757 E12.47316
G1 X71.763 Y154.135 E12.5715
G1 X71.256 Y153.094 E12.62927
G1 X70.798 Y152.111 E12.68337
G1 X70.409 Y151.244 E12.73078
G1 X70.109 Y150.194 E12.78526
G1 X69.587 Y148.206 E12.8878
G1 X69.464 Y147.018 E12.94739
G1 X69.371 Y145.954 E13.00068
G1 X69.312 Y145.071 E13.04483
G1 X69.3 Y144.306 E13.083
G1 X69.3 Y75.66 E16.50776
G1 X69.318 Y74.803 E16.55053
G1 X69.381 Y73.935 E16.59395
G1 X69.57 Y71.886 E16.6966
G1 X69.86 Y70.736 E16.75577
G1 X70.386 Y68.812 E16.85529
G1 X70.862 Y67.751 E16.9133
G1 X71.721 Y65.935 E17.01353
G1 X72.367 Y64.981 E17.07101
G1 X73.537 Y63.328 E17.17204
G1 F1500 E10.67204
;MESH:Plate.stl
G0 F3600 X79.351 Y71.304
G0 X112.02 Y125.311
G0 X113.185 Y126.681
G0 X114.346 Y130.05
G0 X111.628 Y132.888
G0 X111.139 Y133.929
G0 X111.086 Y135.077
G0 X111.476 Y136.159
G0 X127.072 Y153.428
G0 X132.46 Y159.101
G0 X132.487 Y159.8
;TYPE:WALL-OUTER
G1 F1500 E17.17204
G1 F3000 X87.513 Y159.8 E19.41581
G1 X84.924 Y159.573 E19.54547
G1 X82.444 Y158.909 E19.67355
G1 X80.102 Y157.816 E19.80249
G1 X77.988 Y156.336 E19.93124
G1 X76.164 Y154.512 E20.05993
G1 X74.684 Y152.398 E20.18868
G1 X73.591 Y150.054 E20.31771
G1 X72.927 Y147.576 E20.4457
G1 X72.701 Y144.995 E20.57496
G1 X72.701 Y75.013 E24.06637
G1 X72.927 Y72.422 E24.19613
G1 X73.591 Y69.946 E24.32402
G1 X74.685 Y67.602 E24.45308
G1 X76.164 Y65.488 E24.58179
G1 X77.988 Y63.664 E24.71049
G1 X80.102 Y62.184 E24.83923
G1 X82.446 Y61.091 E24.96826
G1 X84.924 Y60.427 E25.09625
G1 X87.513 Y60.2 E25.22591
G1 X132.487 Y60.201 E27.46968
G1 X135.076 Y60.427 E27.59933
G1 X137.554 Y61.091 E27.72732
G1 X139.898 Y62.184 E27.85635
G1 X142.012 Y63.664 E27.9851
G1 X143.836 Y65.488 E28.11379
G1 X145.316 Y67.602 E28.24254
G1 X146.409 Y69.946 E28.37157
G1 X147.073 Y72.422 E28.49946
G1 X147.3 Y75.005 E28.62883
G1 X147.3 Y144.987 E32.12024
G1 X147.073 Y147.576 E32.2499
G1 X146.409 Y150.054 E32.37789
G1 X145.316 Y152.398 E32.50692
G1 X143.836 Y154.512 E32.63567
G1 X142.012 Y156.336 E32.76436
G1 X139.898 Y157.816 E32.89311
G1 X137.556 Y158.909 E33.02205
G1 X135.076 Y159.573 E33.15013
G1 X132.487 Y159.8 E33.2798
G0 F3600 X132.686 Y159.783
G0 X132.626 Y159.086
G0 X126.672 Y153.828
G0 X126.672 Y146.172
G0 X127.396 Y146.1
G0 X127.396 Y146.828
G1 F3000 X127.302 Y146.966 E33.28813
G1 X127.301 Y153.024 E33.59036
G1 X127.351 Y153.135 E33.59643
G1 X127.456 Y153.196 E33.60249
G1 X137.5 Y153.201 E34.10359
G1 X138.733 Y152.954 E34.16633
G1 X139.764 Y152.266 E34.22817
G1 X140.461 Y151.227 E34.29058
G1 X140.705 Y149.999 E34.35305
G1 X140.462 Y148.776 E34.41526
G1 X139.765 Y147.735 E34.47776
G1 X138.73 Y147.041 E34.53993
G1 X137.519 Y146.8 E34.60153
G1 X127.484 Y146.8 E35.10218
G1 X127.396 Y146.828 E35.10679
G0 F3600 X127.484 Y146.8
G0 X127.592 Y146.8
G0 X127.592 Y146.1
G0 X92.567 Y146.1
G0 X92.567 Y146.8
G1 F3000 X82.481 Y146.8 E35.60998
G1 X81.27 Y147.041 E35.67158
G1 X80.232 Y147.744 E35.73412
G1 X79.539 Y148.773 E35.79602
G1 X79.295 Y150 E35.85843
G1 X79.539 Y151.228 E35.9209
G1 X80.238 Y152.262 E35.98316
G1 X81.267 Y152.954 E36.04503
G1 X82.461 Y153.197 E36.10582
G1 X92.535 Y153.198 E36.60841
G1 X92.649 Y153.135 E36.61491
G1 X92.699 Y153.024 E36.62099
G1 X92.698 Y146.966 E36.92322
G1 X92.567 Y146.8 E36.93377
G0 F3600 X92.691 Y146.957
G0 X93.4 Y146.957
G0 X105.36 Y137.97
G0 X105.599 Y137.308
G1 F3000 X106.637 Y137.263 E36.9856
G1 X107.609 Y136.806 E37.03919
G1 X108.309 Y136.036 E37.09111
G1 X108.672 Y135.046 E37.14371
G1 X108.626 Y133.982 E37.19685
G1 X108.178 Y133.033 E37.2492
G1 X107.461 Y132.378 E37.29765
G1 X106.251 Y131.378 E37.37597
G1 X105.435 Y130.156 E37.44928
G1 X105.007 Y128.74 E37.52308
G1 X105.007 Y127.26 E37.59692
G1 X105.435 Y125.844 E37.67072
G1 X106.25 Y124.622 E37.744
G1 X107.451 Y123.625 E37.82187
G1 X108.177 Y122.967 E37.87075
G1 X108.627 Y122.017 E37.9232
G1 X108.669 Y120.958 E37.97607
G1 X108.309 Y119.964 E38.02882
G1 X107.609 Y119.194 E38.08073
G1 X106.655 Y118.737 E38.13351
G1 X105.599 Y118.692 E38.18624
G1 X104.599 Y119.053 E38.23928
G1 X102.889 Y120.341 E38.34609
G1 X101.469 Y121.963 E38.45364
G1 X100.423 Y123.818 E38.55988
G1 X99.769 Y125.87 E38.66733
G1 X99.551 Y128.011 E38.7747
G1 X99.769 Y130.127 E38.88083
G1 X100.42 Y132.175 E38.98804
G1 X101.474 Y134.045 E39.09513
G1 X102.891 Y135.661 E39.20236
G1 X104.601 Y136.948 E39.30913
G1 X105.599 Y137.308 E39.36207
G0 F3600 X105.411 Y137.241
G0 X105.172 Y137.903
G0 X114.368 Y138.01
G0 X114.401 Y137.308
G1 F3000 X115.373 Y136.962 E39.41354
G1 X117.12 Y135.65 E39.52254
G1 X118.526 Y134.045 E39.62899
G1 X119.58 Y132.175 E39.73609
G1 X120.231 Y130.13 E39.84316
G1 X120.45 Y128 E39.94998
G1 X120.227 Y125.854 E40.05762
G1 X119.577 Y123.818 E40.16425
G1 X118.519 Y121.946 E40.27153
G1 X117.111 Y120.341 E40.37805
G1 X115.377 Y119.04 E40.4862
G1 X114.405 Y118.69 E40.53774
G1 X113.348 Y118.737 E40.59053
G1 X112.391 Y119.194 E40.64344
G1 X111.691 Y119.964 E40.69535
G1 X111.331 Y120.958 E40.7481
G1 X111.373 Y122.017 E40.80097
G1 X111.822 Y122.967 E40.85339
G1 X112.538 Y123.622 E40.90181
G1 X113.75 Y124.622 E40.9802
G1 X114.565 Y125.844 E41.05348
G1 X114.993 Y127.26 E41.12728
G1 X114.993 Y128.74 E41.20112
G1 X114.565 Y130.156 E41.27492
G1 X113.749 Y131.378 E41.34823
G1 X112.549 Y132.375 E41.42606
G1 X111.823 Y133.033 E41.47495
G1 X111.374 Y133.982 E41.52733
G1 X111.328 Y135.046 E41.58046
G1 X111.691 Y136.036 E41.63307
G1 X112.391 Y136.806 E41.68498
G1 X113.345 Y137.262 E41.73774
G1 X114.401 Y137.308 E41.79047
G0 F3600 X114.202 Y137.3
G0 X114.169 Y138
G0 X113.192 Y137.894
G0 X112.009 Y137.337
G0 X111.127 Y136.369
G0 X110.768 Y135.373
G0 X109.863 Y131.89
G0 X110 Y131.201
G1 F3000 X111.228 Y130.961 E41.85289
G1 X112.266 Y130.262 E41.91533
G1 X112.962 Y129.225 E41.97764
G1 X113.201 Y128 E42.0399
G1 X112.96 Y126.771 E42.10239
G1 X112.273 Y125.749 E42.16382
G1 X111.227 Y125.039 E42.22689
G1 X110 Y124.799 E42.28927
G1 X108.773 Y125.039 E42.35165
G1 X107.739 Y125.733 E42.41377
G1 X107.041 Y126.77 E42.47614
G1 X106.795 Y128 E42.53872
G1 X107.038 Y129.222 E42.60088
G1 X107.735 Y130.264 E42.66342
G1 X108.775 Y130.961 E42.72588
G1 X110 Y131.201 E42.78816
G0 F3600 X109.804 Y131.163
G0 X109.667 Y131.851
G0 X111.475 Y131.562
G0 X112.726 Y130.726
G0 X113.562 Y129.475
G0 X113.856 Y128
G0 X113.562 Y126.525
G0 X112.054 Y124.036
G0 X111.3 Y123.355
G0 X110.743 Y122.169
G0 X110.683 Y120.862
G0 X127.372 Y73.9
G0 X127.372 Y73.155
G1 F3000 X127.46 Y73.197 E42.79302
G1 X137.519 Y73.2 E43.29487
G1 X138.73 Y72.959 E43.35647
G1 X139.768 Y72.256 E43.41902
G1 X140.461 Y71.227 E43.48091
G1 X140.705 Y70 E43.54332
G1 X140.454 Y68.767 E43.6061
G1 X139.766 Y67.736 E43.66794
G1 X138.727 Y67.039 E43.73036
G1 X137.539 Y66.803 E43.79079
G1 X127.465 Y66.802 E44.29338
G1 X127.351 Y66.865 E44.29988
G1 X127.301 Y66.976 E44.30595
G1 X127.301 Y73.024 E44.60769
G1 X127.372 Y73.155 E44.61512
G0 F3600 X127.301 Y73.024
G0 X127.301 Y72.973
G0 X126.6 Y72.973
G0 X116.579 Y88.797
G0 X115.372 Y90.372
G0 X113.797 Y91.579
G0 X111.966 Y92.337
G0 X110.099 Y92.645
G0 X110.008 Y91.949
G1 F3000 X111.802 Y91.713 E44.7054
G1 X113.484 Y91.015 E44.79625
G1 X114.914 Y89.916 E44.88623
G1 X116.024 Y88.468 E44.97725
G1 X116.715 Y86.795 E45.06756
G1 X116.949 Y84.991 E45.15831
G1 X116.71 Y83.189 E45.249
G1 X116.02 Y81.525 E45.33887
G1 X114.914 Y80.084 E45.4295
G1 X113.458 Y78.971 E45.52093
G1 X111.792 Y78.284 E45.61084
G1 X110 Y78.049 E45.70101
G1 X108.217 Y78.282 E45.79072
G1 X106.542 Y78.971 E45.88108
G1 X105.077 Y80.094 E45.97317
G1 X103.983 Y81.52 E46.06284
G1 X103.283 Y83.214 E46.15428
G1 X103.051 Y85.016 E46.24493
G1 X103.282 Y86.783 E46.33383
G1 X103.972 Y88.46 E46.42431
G1 X105.086 Y89.916 E46.51577
G1 X106.532 Y91.024 E46.60665
G1 X108.21 Y91.716 E46.69721
G1 X110.008 Y91.949 E46.78766
G0 F3600 X109.81 Y91.924
G0 X109.718 Y92.62
G0 X108.034 Y92.337
G0 X106.203 Y91.579
G0 X104.628 Y90.372
G0 X103.651 Y89.097
G0 X93.4 Y73.137
G0 X92.647 Y73.137
G1 F3000 X92.695 Y73.049 E46.79266
G1 X92.699 Y66.976 E47.09565
G1 X92.649 Y66.865 E47.10172
G1 X92.544 Y66.804 E47.10778
G1 X82.461 Y66.803 E47.61082
G1 X81.272 Y67.039 E47.6713
G1 X80.238 Y67.738 E47.73357
G1 X79.546 Y68.767 E47.79543
G1 X79.295 Y69.999 E47.85816
G1 X79.538 Y71.224 E47.92046
G1 X80.235 Y72.265 E47.98297
G1 X81.27 Y72.959 E48.04514
G1 X82.481 Y73.2 E48.10674
G1 X92.522 Y73.2 E48.60769
G1 X92.647 Y73.137 E48.61467
G0 F3600 X92.522 Y73.2
G0 X92.461 Y73.2
G0 X92.461 Y73.9
G0 X120.168 Y123.564
G0 X120.86 Y125.734
G0 X126.672 Y153.828
G0 X132.46 Y159.101
G0 X132.466 Y159.42
;TYPE:SKIN
G1 F3000 X87.534 Y159.42 E50.85634
G1 X84.985 Y159.196 E50.984
G1 X82.58 Y158.553 E51.1082
G1 X80.294 Y157.485 E51.23408
G1 X78.234 Y156.042 E51.35956
G1 X76.458 Y154.266 E51.48487
G1 X75.015 Y152.206 E51.61035
G1 X73.947 Y149.916 E51.73641
G1 X73.304 Y147.515 E51.86042
G1 X73.082 Y144.982 E51.98727
G1 X73.082 Y75.034 E55.47699
G1 X73.304 Y72.481 E55.60484
G1 X73.947 Y70.084 E55.72866
G1 X75.016 Y67.794 E55.85474
G1 X76.458 Y65.734 E55.98019
G1 X78.234 Y63.958 E56.1055
G1 X80.294 Y62.515 E56.23098
G1 X82.584 Y61.447 E56.35704
G1 X84.985 Y60.804 E56.48105
G1 X87.534 Y60.581 E56.6087
G1 X132.466 Y60.582 E58.85037
G1 X135.015 Y60.804 E58.97802
G1 X137.416 Y61.447 E59.10203
G1 X139.706 Y62.515 E59.22809
G1 X141.766 Y63.958 E59.35357
G1 X143.542 Y65.734 E59.47888
G1 X144.985 Y67.794 E59.60436
G1 X146.053 Y70.084 E59.73042
G1 X146.696 Y72.481 E59.85424
G1 X146.92 Y75.018 E59.9813
G1 X146.92 Y144.966 E63.47102
G1 X146.696 Y147.515 E63.59868
G1 X146.053 Y149.916 E63.72269
G1 X144.985 Y152.206 E63.84875
G1 X143.542 Y154.266 E63.97423
G1 X141.766 Y156.042 E64.09954
G1 X139.706 Y157.485 E64.22502
G1 X137.42 Y158.553 E64.3509
G1 X135.015 Y159.196 E64.4751
G1 X132.466 Y159.42 E64.60276
G0 F3600 X132.46 Y159.101
G0 X126.672 Y153.828
G0 X127.081 Y153.402
G1 F3000 X127.404 Y153.581 E64.62118
G1 X137.573 Y153.578 E65.12852
G1 X138.87 Y153.315 E65.19454
G1 X140.035 Y152.535 E65.26449
G1 X140.818 Y151.376 E65.33427
G1 X141.093 Y150.001 E65.40423
G1 X140.82 Y148.626 E65.47416
G1 X140.029 Y147.465 E65.54425
G1 X138.866 Y146.683 E65.61417
G1 X137.553 Y146.421 E65.68097
G1 X127.438 Y146.423 E66.18561
G1 X127.146 Y146.544 E66.20138
G1 X126.92 Y146.866 E66.221
G1 X126.923 Y153.07 E66.53052
G1 X127.081 Y153.402 E66.54887
G0 F3600 X126.6 Y153.402
G0 X93.4 Y153.37
G0 X92.947 Y153.37
G1 F3000 X93.077 Y153.07 E66.56518
G1 X93.081 Y146.976 E66.86921
G1 X93.037 Y146.776 E66.87943
G1 X92.893 Y146.571 E66.89192
G1 X92.561 Y146.423 E66.91006
G1 X82.447 Y146.421 E67.41465
G1 X81.135 Y146.681 E67.48138
G1 X79.969 Y147.463 E67.55142
G1 X79.18 Y148.628 E67.62162
G1 X78.907 Y150.001 E67.69146
G1 X79.182 Y151.376 E67.76142
G1 X79.965 Y152.535 E67.8312
G1 X81.13 Y153.315 E67.90114
G1 X82.422 Y153.577 E67.96691
G1 X92.6 Y153.573 E68.4747
G1 X92.947 Y153.37 E68.49475
G0 F3600 X93.4 Y153.37
G0 X105.418 Y137.991
G0 X105.528 Y137.685
G1 F3000 X106.758 Y137.634 E68.55617
G1 X107.83 Y137.121 E68.61546
G1 X108.652 Y136.22 E68.67631
G1 X109.054 Y135.104 E68.73549
G1 X109.003 Y133.885 E68.79636
G1 X108.489 Y132.801 E68.85621
G1 X107.703 Y132.082 E68.90936
G1 X106.533 Y131.114 E68.98512
G1 X105.784 Y129.993 E69.05238
G1 X105.388 Y128.684 E69.12061
G1 X105.387 Y127.316 E69.18886
G1 X105.784 Y126.005 E69.2572
G1 X106.532 Y124.885 E69.32439
G1 X107.743 Y123.875 E69.40306
G1 X108.487 Y123.2 E69.45318
G1 X109.004 Y122.11 E69.51337
G1 X109.052 Y120.9 E69.57378
G1 X108.645 Y119.778 E69.63333
G1 X107.825 Y118.87 E69.69437
G1 X106.758 Y118.366 E69.75324
G1 X105.538 Y118.314 E69.81416
G1 X104.412 Y118.718 E69.87384
G1 X102.635 Y120.057 E69.98485
G1 X101.174 Y121.72 E70.09529
G1 X100.069 Y123.679 E70.2075
G1 X99.398 Y125.788 E70.31791
G1 X99.172 Y127.973 E70.4275
G1 X99.397 Y130.207 E70.53952
G1 X100.079 Y132.343 E70.65139
G1 X101.159 Y134.261 E70.76121
G1 X102.63 Y135.939 E70.87253
G1 X104.445 Y137.3 E70.98572
G1 X105.528 Y137.685 E71.04306
G0 F3600 X105.418 Y137.991
G0 X114.445 Y138.013
G0 X114.46 Y137.693
G1 F3000 X115.556 Y137.3 E71.10115
G1 X117.381 Y135.928 E71.21506
G1 X118.828 Y134.277 E71.32458
G1 X119.932 Y132.317 E71.43681
G1 X120.605 Y130.198 E71.54774
G1 X120.83 Y127.998 E71.65807
G1 X120.603 Y125.796 E71.76851
G1 X119.923 Y123.661 E71.88029
G1 X118.826 Y121.72 E71.99153
G1 X117.365 Y120.057 E72.10196
G1 X115.567 Y118.706 E72.21417
G1 X114.472 Y118.31 E72.27226
G1 X113.253 Y118.36 E72.33313
G1 X112.17 Y118.879 E72.39304
G1 X111.348 Y119.781 E72.45393
G1 X110.948 Y120.9 E72.51321
G1 X111.001 Y122.113 E72.57379
G1 X111.511 Y123.197 E72.63356
G1 X112.282 Y123.905 E72.68578
G1 X113.468 Y124.885 E72.76253
G1 X114.216 Y126.005 E72.82973
G1 X114.613 Y127.316 E72.89807
G1 X114.613 Y128.684 E72.96632
G1 X114.216 Y129.994 E73.03461
G1 X113.467 Y131.116 E73.10191
G1 X112.257 Y132.125 E73.18051
G1 X111.509 Y132.803 E73.23088
G1 X111 Y133.887 E73.29063
G1 X110.945 Y135.105 E73.35145
G1 X111.355 Y136.222 E73.41082
G1 X112.176 Y137.131 E73.47193
G1 X113.245 Y137.636 E73.53091
G1 X114.46 Y137.693 E73.59159
G0 F3600 X114.445 Y138.013
G0 X113.192 Y137.894
G0 X112.009 Y137.337
G0 X111.127 Y136.369
G0 X110.768 Y135.373
G0 X109.937 Y131.905
G0 X110 Y131.589
G1 F3000 X111.381 Y131.319 E73.6618
G1 X112.543 Y130.532 E73.73181
G1 X113.321 Y129.37 E73.80158
G1 X113.589 Y127.998 E73.87132
G1 X113.317 Y126.623 E73.94125
G1 X112.544 Y125.476 E74.01026
G1 X111.374 Y124.681 E74.08083
G1 X110 Y124.411 E74.15069
G1 X108.625 Y124.681 E74.2206
G1 X107.467 Y125.465 E74.29037
G1 X106.686 Y126.615 E74.35972
G1 X106.407 Y127.999 E74.43016
G1 X106.678 Y129.364 E74.49959
G1 X107.457 Y130.53 E74.56955
G1 X108.623 Y131.319 E74.63979
