;FLAVOR:Marlin
;TIME:4878
;Filament used: 4.2079m
;Layer height: 0.2
;MINX:80.9
;MINY:78.4
;MINZ:0.3
;MAXX:146.6
;MAXY:141.6
;MAXZ:7.5
;Generated with Cura_SteamEngine 5.4.0
M104 S230
M105
M109 S230
M82 ;absolute extrusion mode
G28 ;Home
G1 Z15.0 F6000 ;Move the platform down 15mm
;Prime the extruder
G92 E0
G1 F200 E3
G92 E0
G92 E0
G92 E0
G1 F1500 E-6.5
;LAYER_COUNT:37
;LAYER:0
M107
G0 F3600 X82.035 Y79.395 Z0.3
;TYPE:SKIRT
G1 F1500 E0
G1 F3000 X82.478 Y79.038 E0.02838
G1 X82.971 Y78.755 E0.05674
G1 X83.442 Y78.571 E0.08197
G1 X84.049 Y78.439 E0.11296
G1 X84.494 Y78.402 E0.13524
G1 X142.345 Y78.4 E3.02144
G1 X143.043 Y78.41 E3.05627
G1 X143.64 Y78.47 E3.0862
G1 X144.19 Y78.616 E3.11459
G1 X144.654 Y78.818 E3.13984
G1 X145.135 Y79.12 E3.16817
G1 X145.608 Y79.539 E3.1997
G1 X145.963 Y79.981 E3.22798
G1 X146.246 Y80.475 E3.25639
G1 X146.447 Y81.006 E3.28471
G1 X146.562 Y81.563 E3.31309
G1 X146.599 Y82.24 E3.34691
G1 X146.6 Y137.309 E6.09432
G1 X146.591 Y138.036 E6.13059
G1 X146.533 Y138.633 E6.16051
G1 X146.387 Y139.183 E6.1889
G1 X146.157 Y139.702 E6.21723
G1 X145.848 Y140.18 E6.24562
G1 X145.467 Y140.603 E6.27402
G1 X145.026 Y140.96 E6.30233
G1 X144.532 Y141.244 E6.33076
G1 X144.001 Y141.445 E6.35909
G1 X143.507 Y141.553 E6.38431
G1 X142.76 Y141.599 E6.42165
G1 X85.161 Y141.6 E9.29528
G1 X84.463 Y141.591 E9.3301
G1 X83.865 Y141.532 E9.36008
G1 X83.315 Y141.386 E9.38847
G1 X82.795 Y141.155 E9.41686
G1 X82.319 Y140.847 E9.44515
G1 X81.896 Y140.466 E9.47355
G1 X81.539 Y140.023 E9.50193
G1 X81.256 Y139.531 E9.53025
G1 X81.054 Y138.999 E9.55864
G1 X80.939 Y138.453 E9.58648
G1 X80.902 Y138 E9.60915
G1 X80.9 Y82.626 E12.37177
G1 X80.909 Y81.961 E12.40495
G1 X80.969 Y81.362 E12.43499
G1 X81.115 Y80.814 E12.46328
G1 X81.345 Y80.295 E12.4916
G1 X81.655 Y79.817 E12.52003
G1 X82.035 Y79.395 E12.54836
G0 F3600 X82.289 Y79.704
G1 F3000 X82.68 Y79.383 E12.5736
G1 X83.117 Y79.128 E12.59884
G1 X83.588 Y78.944 E12.62407
G1 X84.082 Y78.838 E12.64927
G1 X84.527 Y78.801 E12.67155
G1 X142.339 Y78.8 E15.5558
G1 X143.037 Y78.81 E15.59063
G1 X143.54 Y78.857 E15.61583
G1 X144.03 Y78.983 E15.64108
G1 X144.494 Y79.185 E15.66632
G1 X144.92 Y79.457 E15.69154
G1 X145.298 Y79.792 E15.71674
G1 X145.618 Y80.183 E15.74195
G1 X145.873 Y80.62 E15.76719
G1 X146.056 Y81.091 E15.7924
G1 X146.163 Y81.585 E15.81762
G1 X146.199 Y82.24 E15.85034
G1 X146.2 Y137.304 E18.5975
G1 X146.191 Y138.031 E18.63377
G1 X146.145 Y138.534 E18.65897
G1 X146.02 Y139.024 E18.6842
G1 X145.819 Y139.488 E18.70943
G1 X145.548 Y139.915 E18.73466
G1 X145.213 Y140.294 E18.75989
G1 X144.823 Y140.615 E18.78509
G1 X144.387 Y140.871 E18.81032
G1 X143.916 Y141.054 E18.83553
G1 X143.422 Y141.162 E18.86076
G1 X142.76 Y141.199 E18.89383
G1 X85.166 Y141.2 E21.76721
G1 X84.468 Y141.191 E21.80204
G1 X83.964 Y141.144 E21.82729
G1 X83.474 Y141.019 E21.85252
G1 X83.01 Y140.818 E21.87775
G1 X82.584 Y140.547 E21.90294
G1 X82.205 Y140.212 E21.92817
G1 X81.884 Y139.821 E21.95341
G1 X81.629 Y139.385 E21.97861
G1 X81.445 Y138.914 E22.00384
G1 X81.338 Y138.42 E22.02906
G1 X81.301 Y137.967 E22.05173
G1 X81.3 Y82.631 E24.81246
G1 X81.309 Y81.966 E24.84564
G1 X81.356 Y81.462 E24.87089
G1 X81.482 Y80.973 E24.89608
G1 X81.683 Y80.509 E24.92131
G1 X81.954 Y80.082 E24.94654
G1 X82.289 Y79.704 E24.97174
G1 F1500 E18.47174
;MESH:Custom Breakout.stl(6)
G0 F3600 X90.086 Y81.335
G0 X90.3 Y137.8
;TYPE:WALL-OUTER
G1 F1500 E24.97174
G1 F3000 X84.7 Y137.8 E25.25113
G1 X84.7 Y82.2 E28.02502
G1 X90.3 Y82.2 E28.30441
G1 X90.3 Y137.8 E31.0783
G0 F3600 X90.3 Y137.6
G0 X89.63 Y137.13
G0 X87.4 Y126.532
G0 X86.7 Y126.532
G1 F3000 X86.571 Y126.392 E31.0878
G1 X86.048 Y126.386 E31.11389
G1 X85.56 Y126.545 E31.1395
G1 X85.213 Y126.929 E31.16532
G1 F2992.5 X85.1 Y127.415 E31.19028
G1 X85.213 Y127.831 E31.21184
G1 F3000 X85.56 Y128.215 E31.23766
G1 X86.048 Y128.374 E31.26326
G1 X86.567 Y128.369 E31.28916
G1 X86.656 Y128.306 E31.2946
G1 X86.698 Y128.215 E31.2996
G1 X86.7 Y126.532 E31.38356
G0 F3600 X86.7 Y126.732
G0 X87.4 Y126.732
G0 X87.336 Y125.85
G0 X86.571 Y123.45
G0 X86.571 Y122.738
G1 F3000 X86.698 Y122.585 E31.39348
G1 X86.7 Y120.95 E31.47505
G1 X86.656 Y120.824 E31.48171
G1 X86.567 Y120.761 E31.48715
G1 X86.048 Y120.756 E31.51305
G1 X85.56 Y120.915 E31.53865
G1 X85.213 Y121.299 E31.56447
G1 F2992.5 X85.1 Y121.785 E31.58943
G1 X85.213 Y122.201 E31.61099
G1 F3000 X85.56 Y122.585 E31.63681
G1 X86.048 Y122.744 E31.66242
G1 X86.571 Y122.738 E31.68851
G0 F3600 X86.371 Y122.74
G0 X86.371 Y123.45
G0 X87.328 Y123.378
G0 X87.4 Y98.324
G0 X86.695 Y98.324
G1 F2758.6 X86.5 Y98.165 E31.70216
G1 F2553.2 X86.079 Y98.165 E31.72684
G1 F2758.6 X85.576 Y98.35 E31.75592
G1 F3000 X85.213 Y98.749 E31.78283
G1 F2992.5 X85.1 Y99.235 E31.80779
G1 X85.213 Y99.651 E31.82935
G1 F3000 X85.56 Y100.035 E31.85517
G1 X86.048 Y100.194 E31.88077
G1 X86.567 Y100.189 E31.90667
G1 X86.656 Y100.126 E31.91211
G1 X86.698 Y100.035 E31.91711
G1 X86.695 Y98.324 E32.00247
G0 F3600 X86.695 Y98.524
G0 X86.698 Y97.533
G1 F3000 X86.7 Y95.86 E32.08594
G1 X86.656 Y95.734 E32.0926
G1 X86.567 Y95.671 E32.09804
G1 X86.048 Y95.666 E32.12393
G1 X85.56 Y95.825 E32.14954
G1 X85.213 Y96.209 E32.17536
G1 F2992.5 X85.1 Y96.695 E32.20031
G1 X85.213 Y97.111 E32.22187
G1 F3000 X85.576 Y97.51 E32.24878
G1 F2758.6 X86.079 Y97.695 E32.27786
G1 F2553.2 X86.5 Y97.695 E32.30254
G1 F2758.6 X86.698 Y97.533 E32.31642
G0 F3600 X86.543 Y97.66
G0 X87.4 Y97.66
G0 X87.4 Y86.976
G0 X86.7 Y86.976
G1 F3000 X86.648 Y86.894 E32.32127
G1 X86.543 Y86.834 E32.3273
G1 X86.048 Y86.836 E32.352
G1 X85.56 Y86.995 E32.3776
G1 X85.213 Y87.379 E32.40342
G1 F2992.5 X85.1 Y87.865 E32.42838
G1 X85.213 Y88.281 E32.44994
G1 F3000 X85.56 Y88.665 E32.47576
G1 X86.048 Y88.824 E32.50137
G1 X86.567 Y88.819 E32.52726
G1 X86.656 Y88.756 E32.5327
G1 X86.698 Y88.665 E32.5377
G1 X86.7 Y86.976 E32.62196
G0 F3600 X86.7 Y87.176
G0 X87.4 Y87.176
G0 X87.328 Y129.008
G0 X86.643 Y129.08
G0 X86.643 Y128.764
;TYPE:SKIN
G1 F3000 X86.913 Y128.583 E32.63818
G1 X87.073 Y128.282 E32.65519
G1 X87.08 Y126.494 E32.74439
G1 X86.925 Y126.191 E32.76137
G1 X86.647 Y125.996 E32.77831
G1 X85.943 Y126.019 E32.81346
G1 X85.554 Y126.124 E32.83356
G1 X85.287 Y126.278 E32.84893
G1 X85.081 Y126.485 E32.8635
G1 X85.086 Y122.652 E33.05473
G1 X85.328 Y122.883 E33.07142
G1 X85.554 Y123.006 E33.08426
G1 X85.943 Y123.111 E33.10436
G1 X86.647 Y123.134 E33.1395
G1 X86.923 Y122.94 E33.15634
G1 X87.073 Y122.652 E33.17254
G1 X87.08 Y120.955 E33.2572
G1 X86.984 Y120.644 E33.27344
G1 X86.911 Y120.546 E33.27954
G1 X86.643 Y120.366 E33.29564
G1 X85.943 Y120.389 E33.33058
G1 X85.554 Y120.494 E33.35069
G1 X85.288 Y120.648 E33.36602
G1 X85.08 Y120.855 E33.38066
G1 X85.088 Y100.103 E34.41598
G1 X85.328 Y100.333 E34.43257
G1 X85.554 Y100.456 E34.4454
G1 X85.943 Y100.561 E34.4655
G1 X86.643 Y100.584 E34.50045
G1 X86.913 Y100.403 E34.51666
G1 X87.073 Y100.102 E34.53367
G1 X87.076 Y98.361 E34.62053
G1 X87.024 Y98.147 E34.63152
G1 X86.786 Y97.929 E34.64762
G1 X87.024 Y97.711 E34.66372
G1 X87.073 Y97.561 E34.67159
G1 X87.08 Y95.865 E34.75621
G1 X86.984 Y95.554 E34.77245
G1 X86.911 Y95.456 E34.77854
G1 X86.643 Y95.276 E34.79465
G1 X85.943 Y95.299 E34.82959
G1 X85.554 Y95.404 E34.84969
G1 X85.288 Y95.558 E34.86503
G1 X85.08 Y95.765 E34.87967
G1 X85.088 Y88.733 E35.2305
G1 X85.328 Y88.963 E35.24708
G1 X85.554 Y89.086 E35.25992
G1 X85.943 Y89.191 E35.28002
G1 X86.643 Y89.214 E35.31496
G1 X86.913 Y89.033 E35.33118
G1 X87.073 Y88.732 E35.34818
G1 X87.08 Y86.931 E35.43804
G1 X87.05 Y86.823 E35.44363
G1 X86.878 Y86.595 E35.45788
G1 X86.626 Y86.463 E35.47207
G1 X86.056 Y86.455 E35.50051
G1 X85.558 Y86.574 E35.52606
G1 X85.328 Y86.697 E35.53907
G1 X85.088 Y86.927 E35.55565
G1 X85.082 Y82.581 E35.77248
G1 X89.92 Y82.58 E36.01385
G1 X89.92 Y137.42 E38.74982
G1 X85.081 Y137.42 E38.99124
G1 X85.088 Y128.283 E39.44709
G1 X85.328 Y128.513 E39.46367
G1 X85.554 Y128.636 E39.47651
G1 X85.943 Y128.741 E39.49661
G1 X86.643 Y128.764 E39.53155
G0 F3600 X86.643 Y129.08
G0 X86.928 Y97.972
G0 X86.211 Y97.964
G0 X85.35 Y98.07
G1 F3370.8 X85.062 Y98.354 E39.54951
G1 X85.063 Y97.507 E39.58712
G1 X85.35 Y97.79 E39.60502
G1 X85.66 Y97.93 E39.62012
G1 X85.35 Y98.07 E39.63523
G0 F3600 X86.928 Y97.888
G0 X89.6 Y82.931
G0 X89.719 Y82.931
G1 F3000 X89.568 Y82.78 E39.64588
G0 F3600 X89.002 Y82.78
G1 F3000 X89.719 Y83.497 E39.69647
G0 F3600 X89.719 Y84.062
G1 F3000 X88.437 Y82.78 E39.78692
G0 F3600 X87.871 Y82.78
G1 F3000 X89.719 Y84.628 E39.91731
G0 F3600 X89.719 Y85.194
G1 F3000 X87.306 Y82.78 E40.08759
G0 F3600 X86.74 Y82.78
G1 F3000 X89.719 Y85.76 E40.29781
G0 F3600 X89.719 Y86.325
G1 F3000 X86.175 Y82.78 E40.5479
G0 F3600 X85.609 Y82.78
G1 F3000 X89.719 Y86.891 E40.83791
G0 F3600 X89.719 Y87.457
G1 F3000 X85.281 Y83.018 E41.15107
G0 F3600 X85.282 Y83.584
G1 F3000 X89.719 Y88.022 E41.46416
G0 F3600 X89.719 Y88.588
G1 F3000 X85.282 Y84.151 E41.77722
G0 F3600 X85.284 Y84.718
G1 F3000 X89.719 Y89.154 E42.09017
G0 F3600 X89.719 Y89.719
G1 F3000 X87.277 Y87.277 E42.26246
G0 F3600 X87.274 Y87.84
G1 F3000 X89.719 Y90.285 E42.43497
G0 F3600 X89.719 Y90.851
G1 F3000 X87.271 Y88.402 E42.60773
G0 F3600 X87.211 Y88.908
G1 F3000 X89.719 Y91.416 E42.78468
G0 F3600 X89.719 Y91.982
G1 F3000 X86.97 Y89.233 E42.97863
G0 F3600 X86.583 Y89.412
G1 F3000 X89.719 Y92.548 E43.1999
G0 F3600 X89.719 Y93.113
G1 F3000 X86.003 Y89.398 E43.46205
G0 F3600 X85.286 Y89.246
G1 F3000 X89.719 Y93.679 E43.77482
G0 F3600 X89.719 Y94.245
G1 F3000 X85.285 Y89.811 E44.08766
G0 F3600 X85.285 Y90.376
G1 F3000 X89.719 Y94.81 E44.4005
G0 F3600 X89.719 Y95.376
G1 F3000 X85.284 Y90.941 E44.71342
G0 F3600 X85.284 Y91.506
G1 F3000 X89.719 Y95.942 E45.02636
G0 F3600 X89.719 Y96.508
G1 F3000 X85.283 Y92.071 E45.33938
G0 F3600 X85.282 Y92.636
G1 F3000 X89.719 Y97.073 E45.65244
G0 F3600 X89.719 Y97.639
G1 F3000 X85.282 Y93.201 E45.96553
G0 F3600 X85.281 Y93.766
G1 F3000 X86.59 Y95.076 E46.05792
G0 F3600 X86.04 Y95.091
G1 F3000 X85.28 Y94.331 E46.11154
G0 F3600 X85.279 Y94.896
G1 F3000 X85.575 Y95.192 E46.13243
G0 F3600 X85.546 Y95.077
G0 X87.328 Y95.032
G0 X87.4 Y95.725
G0 X87.24 Y95.725
G1 F3000 X89.719 Y98.205 E46.30737
G0 F3600 X89.719 Y98.77
G1 F3000 X87.276 Y96.327 E46.47974
G0 F3600 X87.273 Y96.89
G1 F3000 X89.719 Y99.336 E46.65231
G0 F3600 X89.719 Y99.902
G1 F3000 X87.271 Y97.453 E46.82507
G0 F3600 X87.135 Y97.883
G1 F3000 X89.719 Y100.467 E47.00738
G0 F3600 X89.719 Y101.033
G1 F3000 X87.278 Y98.591 E47.17964
G0 F3600 X87.274 Y99.154
G1 F3000 X89.719 Y101.599 E47.35215
G0 F3600 X89.719 Y102.164
G1 F3000 X87.271 Y99.716 E47.52487
G0 F3600 X87.227 Y100.238
G1 F3000 X89.719 Y102.73 E47.7007
G0 F3600 X89.719 Y103.296
G1 F3000 X87.004 Y100.58 E47.89229
G0 F3600 X86.641 Y100.783
G1 F3000 X89.719 Y103.861 E48.10946
G0 F3600 X89.719 Y104.427
G1 F3000 X86.06 Y100.768 E48.36762
G1 X85.99 Y100.698
G0 F3600 X85.287 Y100.561
G1 F3000 X89.719 Y104.993 E48.68032
G0 F3600 X89.719 Y105.559
G1 F3000 X85.287 Y101.126 E48.99306
G0 F3600 X85.287 Y101.692
G1 F3000 X89.719 Y106.124 E49.30576
G0 F3600 X89.719 Y106.69
G1 F3000 X85.286 Y102.257 E49.61853
G0 F3600 X85.286 Y102.823
G1 F3000 X89.719 Y107.256 E49.93131
G0 F3600 X89.719 Y107.821
G1 F3000 X85.286 Y103.388 E50.24408
G0 F3600 X85.286 Y103.953
G1 F3000 X89.719 Y108.387 E50.55688
G0 F3600 X89.719 Y108.953
G1 F3000 X85.286 Y104.519 E50.86969
G0 F3600 X85.286 Y105.085
G1 F3000 X89.719 Y109.518 E51.18246
G0 F3600 X89.719 Y110.084
G1 F3000 X85.285 Y105.65 E51.49531
G0 F3600 X85.285 Y106.215
G1 F3000 X89.719 Y110.65 E51.80818
G0 F3600 X89.719 Y111.215
G1 F3000 X85.285 Y106.781 E52.12103
G0 F3600 X85.284 Y107.346
G1 F3000 X89.719 Y111.781 E52.43394
G0 F3600 X89.719 Y112.347
G1 F3000 X85.284 Y107.912 E52.74685
G0 F3600 X85.284 Y108.477
G1 F3000 X89.719 Y112.912 E53.05977
G0 F3600 X89.719 Y113.478
G1 F3000 X85.284 Y109.042 E53.37272
G0 F3600 X85.284 Y109.608
G1 F3000 X89.719 Y114.044 E53.68566
G0 F3600 X89.719 Y114.609
G1 F3000 X85.284 Y110.174 E53.99858
G0 F3600 X85.283 Y110.739
G1 F3000 X89.719 Y115.175 E54.31156
G0 F3600 X89.719 Y115.741
G1 F3000 X85.283 Y111.304 E54.62458
G0 F3600 X85.283 Y111.87
G1 F3000 X89.719 Y116.307 E54.9376
G0 F3600 X89.719 Y116.872
G1 F3000 X85.282 Y112.435 E55.25065
G0 F3600 X85.282 Y113.001
G1 F3000 X89.719 Y117.438 E55.56371
G0 F3600 X89.719 Y118.004
G1 F3000 X85.282 Y113.567 E55.87676
G0 F3600 X85.282 Y114.131
G1 F3000 X89.719 Y118.569 E56.18985
G0 F3600 X89.719 Y119.135
G1 F3000 X85.282 Y114.697 E56.50294
G0 F3600 X85.282 Y115.263
G1 F3000 X89.719 Y119.701 E56.81603
G0 F3600 X89.719 Y120.266
G1 F3000 X85.281 Y115.828 E57.12916
G0 F3600 X85.281 Y116.394
G1 F3000 X89.719 Y120.832 E57.44228
G0 F3600 X89.719 Y121.398
G1 F3000 X85.281 Y116.959 E57.75544
G0 F3600 X85.28 Y117.524
G1 F3000 X89.719 Y121.963 E58.06864
G0 F3600 X89.719 Y122.529
G1 F3000 X85.28 Y118.09 E58.38183
G0 F3600 X85.28 Y118.656
G1 F3000 X86.969 Y120.344 E58.50096
G1 X87.086 Y120.462
G1 X89.719 Y123.095 E58.68674
G0 F3600 X89.719 Y123.66
G1 F3000 X87.278 Y121.219 E58.85896
G0 F3600 X87.275 Y121.782
G1 F3000 X89.719 Y124.226 E59.0314
G0 F3600 X89.719 Y124.792
G1 F3000 X87.271 Y122.344 E59.20412
G0 F3600 X87.207 Y122.845
G1 F3000 X89.719 Y125.358 E59.38139
G0 F3600 X89.719 Y125.923
G1 F3000 X86.955 Y123.158 E59.57644
G0 F3600 X86.561 Y123.331
G1 F3000 X89.719 Y126.489 E59.79925
G0 F3600 X89.719 Y127.055
G1 F3000 X85.982 Y123.317 E60.06296
G0 F3600 X85.286 Y123.187
G1 F3000 X89.719 Y127.62 E60.37573
G0 F3600 X89.719 Y128.186
G1 F3000 X85.285 Y123.752 E60.68857
G0 F3600 X85.284 Y124.317
G1 F3000 X86.901 Y125.933 E60.80262
G0 F3600 X87.148 Y126.18
G1 F3000 X89.719 Y128.752 E60.98406
G0 F3600 X89.719 Y129.317
G1 F3000 X87.277 Y126.875 E61.15635
G0 F3600 X87.274 Y127.438
G1 F3000 X89.719 Y129.883 E61.32886
G0 F3600 X89.719 Y130.449
G1 F3000 X87.271 Y128.001 E61.50158
G0 F3600 X87.198 Y128.493
G1 F3000 X89.719 Y131.014 E61.67945
G0 F3600 X89.719 Y131.58
G1 F3000 X86.941 Y128.802 E61.87545
G0 F3600 X86.534 Y128.96
G1 F3000 X89.719 Y132.146 E62.10021
G0 F3600 X89.719 Y132.711
G1 F3000 X85.954 Y128.946 E62.36585
G0 F3600 X85.286 Y128.844
G1 F3000 X89.719 Y133.277 E62.67862
G0 F3600 X89.719 Y133.843
G1 F3000 X85.286 Y129.409 E62.99143
G0 F3600 X85.285 Y129.974
G1 F3000 X89.719 Y134.408 E63.30427
G0 F3600 X89.719 Y134.974
G1 F3000 X85.285 Y130.54 E63.61711
G0 F3600 X85.284 Y131.105
G1 F3000 X89.719 Y135.54 E63.93003
G0 F3600 X89.719 Y136.106
G1 F3000 X85.284 Y131.67 E64.24297
G0 F3600 X85.284 Y132.236
G1 F3000 X89.719 Y136.671 E64.55589
G0 F3600 X89.701 Y137.219
G1 F3000 X85.283 Y132.801 E64.8676
G0 F3600 X85.283 Y133.366
G1 F3000 X89.135 Y137.219 E65.13942
G0 F3600 X88.57 Y137.219
G1 F3000 X85.282 Y133.931 E65.3714
G0 F3600 X85.282 Y134.496
G1 F3000 X88.004 Y137.219 E65.56349
G0 F3600 X87.438 Y137.219
G1 F3000 X85.282 Y135.062 E65.71564
G0 F3600 X85.281 Y135.627
G1 F3000 X86.873 Y137.219 E65.82797
G0 F3600 X86.307 Y137.219
G1 F3000 X85.281 Y136.193 E65.90036
G0 F3600 X85.28 Y136.757
G1 F3000 X85.741 Y137.219 E65.93292
G0 F3600 X85.741 Y137.1
G0 X87.328 Y129.008
G0 X87.328 Y125.752
G0 X85.684 Y125.76
G0 X85.714 Y125.877
G1 F3000 X85.282 Y125.446 E65.96336
G0 F3600 X85.283 Y124.881
G1 F3000 X86.208 Y125.806 E66.02863
G1 X86.278 Y125.876
G0 F3600 X86.278 Y125.68
G0 X87.328 Y123.378
G0 X87.328 Y120.122
G0 X85.705 Y120.125
G0 X85.735 Y120.242
G1 F3000 X85.279 Y119.786 E66.0608
G0 F3600 X85.279 Y119.221
G1 F3000 X86.233 Y120.174 E66.12807
G1 X86.303 Y120.244
G0 F3600 X86.303 Y120.05
G0 X87.328 Y100.828
G0 X87.328 Y86.202
G0 X85.722 Y86.2
G0 X85.753 Y86.319
G1 F3000 X85.285 Y85.851 E66.16109
G0 F3600 X85.284 Y85.284
G1 F3000 X86.253 Y86.253 E66.22946
G1 X86.323 Y86.323
G0 F3600 X86.323 Y85.83
G1 F1500 E59.72946
;MESH:Custom Breakout.stl(4)
G0 F3600 X86.928 Y86.602
G0 X90.08 Y137.53
G0 X92.42 Y137.53
G0 X97.8 Y137.8
;TYPE:WALL-OUTER
G1 F1500 E66.22946
G1 F3000 X92.2 Y137.8 E66.50885
G1 X92.2 Y82.2 E69.28274
G1 X97.8 Y82.2 E69.56213
G1 X97.8 Y137.8 E72.33602
G0 F3600 X97.8 Y137.6
G0 X97.13 Y137.13
G0 X94.9 Y126.532
G0 X94.2 Y126.532
G1 F3000 X94.071 Y126.392 E72.34552
G1 X93.548 Y126.386 E72.37161
G1 X93.06 Y126.545 E72.39722
