;FLAVOR:Marlin
;TIME:3848
;Filament used: 5.56103m
;Layer height: 0.2
;MINX:79.058
;MINY:77.573
;MINZ:0.3
;MAXX:158.47
;MAXY:141.086
;MAXZ:19.9
;Generated with Cura_SteamEngine 5.4.0
M104 S230
M105
M109 S230
M82 ;absolute extrusion mode
G28 ;Home
G1 Z15.0 F6000 ;Move the platform down 15mm
;Prime the extruder
G92 E0
G1 F200 E3
G92 E0
G92 E0
G92 E0
G1 F1500 E-6.5
;LAYER_COUNT:99
;LAYER:0
M107
G0 F3600 X87.589 Y82.544 Z0.3
;TYPE:SKIRT
G1 F1500 E0
G1 F3000 X87.986 Y82.23 E0.02525
G1 X88.427 Y81.984 E0.05045
G1 X88.902 Y81.809 E0.0757
G1 X89.448 Y81.707 E0.10341
G1 X92.485 Y81.406 E0.25567
G1 X95.239 Y81.049 E0.39422
G1 X97.961 Y80.62 E0.5317
G1 X99.459 Y80.357 E0.60757
G1 X100.009 Y80.301 E0.63516
G1 X112.064 Y80.3 E1.23658
G1 X114.861 Y80.26 E1.37614
G1 X117.578 Y80.145 E1.51181
G1 X120.324 Y79.95 E1.64916
G1 X123.03 Y79.682 E1.78482
G1 X125.753 Y79.334 E1.92178
G1 X128.454 Y78.909 E2.05819
G1 X131.154 Y78.407 E2.1952
G1 X133.906 Y77.814 E2.33565
G1 X134.563 Y77.663 E2.36928
G1 X135.26 Y77.574 E2.40434
G1 X154.609 Y77.573 E3.36966
G1 X155.307 Y77.583 E3.40449
G1 X155.81 Y77.63 E3.42969
G1 X156.3 Y77.756 E3.45493
G1 X156.764 Y77.958 E3.48018
G1 X157.19 Y78.23 E3.5054
G1 X157.568 Y78.565 E3.5306
G1 X157.888 Y78.956 E3.5558
G1 X158.143 Y79.393 E3.58105
G1 X158.326 Y79.864 E3.60626
G1 X158.433 Y80.358 E3.63147
G1 X158.469 Y80.803 E3.65375
G1 X158.47 Y83.112 E3.76894
G1 X158.46 Y83.81 E3.80377
G1 X158.359 Y84.56 E3.84153
G1 X157.759 Y86.894 E3.96176
G1 X157.134 Y89.611 E4.10085
G1 X156.59 Y92.326 E4.23899
G1 X156.133 Y94.998 E4.37423
G1 X155.756 Y97.656 E4.50817
G1 X155.442 Y100.421 E4.647
G1 X155.21 Y103.16 E4.78414
G1 X155.057 Y105.881 E4.92011
G1 X154.97 Y109.962 E5.12375
G1 X154.97 Y128.112 E6.02926
G1 X154.96 Y128.815 E6.06434
G1 X154.913 Y129.318 E6.08954
G1 X154.787 Y129.808 E6.11478
G1 X154.585 Y130.271 E6.13999
G1 X154.219 Y130.817 E6.17278
G1 X153.383 Y131.821 E6.23796
G1 X151.669 Y133.937 E6.37382
G1 X150.823 Y135.047 E6.44344
G1 X150.284 Y135.736 E6.48709
G1 X149.942 Y136.108 E6.5123
G1 X149.546 Y136.422 E6.53751
G1 X149.048 Y136.701 E6.56599
G1 X145.837 Y137.881 E6.73666
G1 X143.25 Y138.922 E6.87579
G1 X140.775 Y140 E7.01047
G1 X139.07 Y140.787 E7.10416
G1 X138.595 Y140.959 E7.12936
G1 X137.77 Y141.086 E7.171
G1 X118.402 Y141.086 E8.13728
G1 X117.712 Y141.076 E8.17171
G1 X114.111 Y140.865 E8.35167
G1 X111.356 Y140.786 E8.48917
G1 X108.637 Y140.786 E8.62482
G1 X105.886 Y140.863 E8.76213
G1 X103.119 Y141.019 E8.90039
G1 X102.203 Y141.08 E8.94619
G1 X82.919 Y141.081 E9.90827
G1 X82.221 Y141.071 E9.9431
G1 X81.718 Y141.024 E9.9683
G1 X81.228 Y140.898 E9.99355
G1 X80.764 Y140.696 E10.01879
G1 X80.338 Y140.424 E10.04401
G1 X79.96 Y140.089 E10.06921
G1 X79.64 Y139.698 E10.09442
G1 X79.385 Y139.261 E10.11966
G1 X79.202 Y138.79 E10.14487
G1 X79.095 Y138.296 E10.17009
G1 X79.059 Y137.847 E10.19256
G1 X79.058 Y135.538 E10.30775
G1 X79.069 Y134.832 E10.34298
G1 X79.17 Y134.084 E10.38064
G1 X79.776 Y131.729 E10.50196
G1 X80.397 Y129.025 E10.64037
G1 X80.936 Y126.339 E10.77705
G1 X81.394 Y123.661 E10.91259
G1 X81.774 Y120.981 E11.04764
G1 X82.086 Y118.235 E11.18552
G1 X82.318 Y115.491 E11.3229
G1 X82.471 Y112.772 E11.45877
G1 X82.558 Y108.692 E11.66237
G1 X82.558 Y90.542 E12.56788
G1 X82.568 Y89.839 E12.60295
G1 X82.615 Y89.336 E12.62816
G1 X82.741 Y88.846 E12.6534
G1 X82.943 Y88.383 E12.6786
G1 X83.309 Y87.837 E12.71139
G1 X84.145 Y86.833 E12.77657
G1 X85.865 Y84.708 E12.91297
G1 X86.733 Y83.57 E12.98437
G1 X87.247 Y82.915 E13.02591
G1 X87.589 Y82.544 E13.05108
G1 F1500 E6.55108
;MESH:Stand.stl(2)
G0 F3600 X90.172 Y84.216
G0 X90.172 Y85.295
G0 X90.186 Y90.309
G0 X89.801 Y90.781
G0 X89.801 Y90.081
;TYPE:WALL-OUTER
G1 F1500 E13.05108
G1 F3000 X89.887 Y90.035 E13.05595
G1 X89.958 Y89.899 E13.0636
G1 X89.958 Y85.081 E13.30398
G1 X94.558 Y85.081 E13.53347
G1 X94.558 Y89.899 E13.77384
G1 X94.629 Y90.035 E13.7815
G1 X94.727 Y90.079 E13.78686
G1 X98.558 Y90.081 E13.97798
G1 X98.558 Y134.925 E16.21526
G1 X98.681 Y135.081 E16.22517
G1 X102.058 Y135.081 E16.39365
G1 X102.058 Y137.681 E16.52337
G1 X82.458 Y137.681 E17.50121
G1 X82.458 Y135.081 E17.63093
G1 X85.793 Y135.079 E17.79731
G1 X85.918 Y135.001 E17.80466
G1 X85.958 Y134.925 E17.80895
G1 X85.958 Y90.081 E20.04622
G1 X89.801 Y90.081 E20.23795
G0 F3600 X89.601 Y90.081
G0 X89.601 Y90.781
G0 X97.858 Y135.26
G0 X98.323 Y135.26
;TYPE:SKIN
G1 F3000 X98.531 Y135.412 E20.2508
G1 X98.709 Y135.456 E20.25995
G1 X101.678 Y135.461 E20.40808
G1 X101.678 Y137.301 E20.49987
G1 X82.838 Y137.301 E21.43981
G1 X82.838 Y135.461 E21.5316
G1 X85.86 Y135.454 E21.68237
G1 X86.002 Y135.408 E21.68982
G1 X86.195 Y135.258 E21.70201
G1 X86.338 Y134.961 E21.71846
G1 X86.338 Y90.461 E23.93857
G1 X89.853 Y90.454 E24.11394
G1 X90.061 Y90.375 E24.12504
G1 X90.263 Y90.165 E24.13958
G1 X90.335 Y89.946 E24.15108
G1 X90.338 Y85.461 E24.37483
G1 X94.178 Y85.461 E24.56641
G1 X94.179 Y90.008 E24.79326
G1 X94.36 Y90.298 E24.81032
G1 X94.657 Y90.452 E24.82701
G1 X98.178 Y90.461 E25.00267
G1 X98.178 Y134.961 E27.22279
G1 X98.323 Y135.26 E27.23937
G0 F3600 X97.858 Y135.26
G0 X83.36 Y136.981
G0 X83.36 Y137.1
G1 F3000 X83.037 Y136.777 E27.26216
G0 F3600 X83.037 Y136.212
G1 F3000 X83.925 Y137.1 E27.32481
G0 F3600 X84.491 Y137.1
G1 F3000 X83.051 Y135.66 E27.42641
G0 F3600 X83.615 Y135.658
G1 F3000 X85.057 Y137.1 E27.52815
G0 F3600 X85.622 Y137.1
G1 F3000 X84.179 Y135.657 E27.62996
G0 F3600 X84.743 Y135.654
G1 F3000 X86.188 Y137.1 E27.73195
G0 F3600 X86.754 Y137.1
G1 F3000 X85.306 Y135.652 E27.83411
G0 F3600 X85.87 Y135.65
G1 F3000 X87.319 Y137.1 E27.93638
G0 F3600 X87.885 Y137.1
G1 F3000 X86.25 Y135.464 E28.05178
G0 F3600 X86.494 Y135.142
G1 F3000 X88.451 Y137.1 E28.18989
G0 F3600 X89.016 Y137.1
G1 F3000 X86.537 Y134.621 E28.3648
G0 F3600 X86.537 Y134.055
G1 F3000 X89.582 Y137.1 E28.57964
G0 F3600 X90.148 Y137.1
G1 F3000 X86.537 Y133.489 E28.83441
G0 F3600 X86.537 Y132.924
G1 F3000 X90.714 Y137.1 E29.12909
G0 F3600 X91.279 Y137.1
G1 F3000 X86.537 Y132.358 E29.46366
G0 F3600 X86.537 Y131.792
G1 F3000 X91.845 Y137.1 E29.83817
G0 F3600 X92.411 Y137.1
G1 F3000 X86.537 Y131.226 E30.25261
G0 F3600 X86.537 Y130.661
G1 F3000 X92.976 Y137.1 E30.70692
G0 F3600 X93.542 Y137.1
G1 F3000 X86.537 Y130.095 E31.20116
G0 F3600 X86.537 Y129.529
G1 F3000 X94.108 Y137.1 E31.73533
G0 F3600 X94.673 Y137.1
G1 F3000 X86.537 Y128.964 E32.30937
G0 F3600 X86.537 Y128.398
G1 F3000 X95.239 Y137.1 E32.92334
G0 F3600 X95.805 Y137.1
G1 F3000 X86.537 Y127.832 E33.57725
G0 F3600 X86.537 Y127.267
G1 F3000 X96.37 Y137.1 E34.27102
G0 F3600 X96.936 Y137.1
G1 F3000 X86.537 Y126.701 E35.00473
G0 F3600 X86.537 Y126.135
G1 F3000 X97.502 Y137.1 E35.77837
G0 F3600 X98.067 Y137.1
G1 F3000 X86.537 Y125.57 E36.59187
G0 F3600 X86.537 Y125.004
G1 F3000 X98.633 Y137.1 E37.44531
G0 F3600 X99.199 Y137.1
G1 F3000 X86.537 Y124.438 E38.33868
G0 F3600 X86.537 Y123.873
G1 F3000 X99.764 Y137.1 E39.27192
G0 F3600 X100.33 Y137.1
G1 F3000 X98.891 Y135.66 E39.37348
G0 F3600 X99.456 Y135.66
G1 F3000 X100.896 Y137.1 E39.47508
G0 F3600 X101.462 Y137.1
G1 F3000 X100.022 Y135.66 E39.57668
G0 F3600 X100.588 Y135.66
G1 F3000 X101.477 Y136.55 E39.63944
G0 F3600 X101.477 Y135.984
G1 F3000 X101.153 Y135.66 E39.6623
G0 F3600 X101.153 Y135.781
G0 X97.93 Y135.709
G0 X97.858 Y134.747
G0 X97.978 Y134.747
G1 F3000 X86.537 Y123.307 E40.46949
G0 F3600 X86.537 Y122.741
G1 F3000 X97.978 Y134.181 E41.27668
G0 F3600 X97.978 Y133.616
G1 F3000 X86.537 Y122.176 E42.08387
G0 F3600 X86.537 Y121.61
G1 F3000 X97.978 Y133.05 E42.89106
G0 F3600 X97.978 Y132.484
G1 F3000 X86.537 Y121.044 E43.69825
G0 F3600 X86.537 Y120.478
G1 F3000 X97.978 Y131.919 E44.50547
G0 F3600 X97.978 Y131.353
G1 F3000 X86.537 Y119.913 E45.31266
G0 F3600 X86.537 Y119.347
G1 F3000 X97.978 Y130.787 E46.11985
G0 F3600 X97.978 Y130.222
G1 F3000 X86.537 Y118.781 E46.92707
G0 F3600 X86.537 Y118.216
G1 F3000 X97.978 Y129.656 E47.73426
G0 F3600 X97.978 Y129.09
G1 F3000 X86.537 Y117.65 E48.54145
G0 F3600 X86.537 Y117.084
G1 F3000 X97.978 Y128.525 E49.34868
G0 F3600 X97.978 Y127.959
G1 F3000 X86.537 Y116.519 E50.15587
G0 F3600 X86.537 Y115.953
G1 F3000 X97.978 Y127.393 E50.96306
G0 F3600 X97.978 Y126.828
G1 F3000 X86.537 Y115.387 E51.77028
G0 F3600 X86.537 Y114.822
G1 F3000 X97.978 Y126.262 E52.57747
G0 F3600 X97.978 Y125.696
G1 F3000 X86.537 Y114.256 E53.38466
G0 F3600 X86.537 Y113.69
G1 F3000 X97.978 Y125.131 E54.19188
G0 F3600 X97.978 Y124.565
G1 F3000 X86.537 Y113.125 E54.99907
G0 F3600 X86.537 Y112.559
G1 F3000 X97.978 Y123.999 E55.80626
G0 F3600 X97.978 Y123.433
G1 F3000 X86.537 Y111.993 E56.61345
G0 F3600 X86.537 Y111.428
G1 F3000 X97.978 Y122.868 E57.42064
G0 F3600 X97.978 Y122.302
G1 F3000 X86.537 Y110.862 E58.22783
G0 F3600 X86.537 Y110.296
G1 F3000 X97.978 Y121.736 E59.03502
G0 F3600 X97.978 Y121.171
G1 F3000 X86.537 Y109.73 E59.84224
G0 F3600 X86.537 Y109.165
G1 F3000 X97.978 Y120.605 E60.64943
G0 F3600 X97.978 Y120.039
G1 F3000 X86.537 Y108.599 E61.45662
G0 F3600 X86.537 Y108.033
G1 F3000 X97.978 Y119.474 E62.26384
G0 F3600 X97.978 Y118.908
G1 F3000 X86.537 Y107.468 E63.07103
G0 F3600 X86.537 Y106.902
G1 F3000 X97.978 Y118.342 E63.87822
G0 F3600 X97.978 Y117.777
G1 F3000 X86.537 Y106.336 E64.68545
G0 F3600 X86.537 Y105.771
G1 F3000 X97.978 Y117.211 E65.49264
G0 F3600 X97.978 Y116.645
G1 F3000 X86.537 Y105.205 E66.29982
G0 F3600 X86.537 Y104.639
G1 F3000 X97.978 Y116.08 E67.10705
G0 F3600 X97.978 Y115.514
G1 F3000 X86.537 Y104.074 E67.91424
G0 F3600 X86.537 Y103.508
G1 F3000 X97.978 Y114.948 E68.72143
G0 F3600 X97.978 Y114.383
G1 F3000 X86.537 Y102.942 E69.52865
G0 F3600 X86.537 Y102.377
G1 F3000 X97.978 Y113.817 E70.33584
G0 F3600 X97.978 Y113.251
G1 F3000 X86.537 Y101.811 E71.14303
G0 F3600 X86.537 Y101.245
G1 F3000 X97.977 Y112.685 E71.95018
G0 F3600 X97.977 Y112.119
G1 F3000 X86.537 Y100.679 E72.75734
G0 F3600 X86.537 Y100.114
G1 F3000 X97.977 Y111.553 E73.56446
G0 F3600 X97.977 Y110.988
G1 F3000 X86.537 Y99.548 E74.37161
G0 F3600 X86.537 Y98.982
G1 F3000 X97.977 Y110.422 E75.17876
G0 F3600 X97.977 Y109.856
G1 F3000 X86.537 Y98.417 E75.98588
G0 F3600 X86.537 Y97.851
G1 F3000 X97.977 Y109.291 E76.79304
G0 F3600 X97.977 Y108.725
G1 F3000 X86.537 Y97.285 E77.60019
G0 F3600 X86.537 Y96.72
G1 F3000 X97.977 Y108.159 E78.40731
G0 F3600 X97.977 Y107.594
G1 F3000 X86.537 Y96.154 E79.21446
G0 F3600 X86.537 Y95.588
G1 F3000 X97.977 Y107.028 E80.02161
G0 F3600 X97.977 Y106.462
G1 F3000 X86.537 Y95.023 E80.82873
G0 F3600 X86.537 Y94.457
G1 F3000 X97.977 Y105.897 E81.63589
G0 F3600 X97.977 Y105.331
G1 F3000 X86.537 Y93.891 E82.44304
G0 F3600 X86.537 Y93.326
G1 F3000 X97.977 Y104.765 E83.25016
G0 F3600 X97.977 Y104.199
G1 F3000 X86.537 Y92.76 E84.05728
G0 F3600 X86.537 Y92.194
G1 F3000 X97.977 Y103.634 E84.86443
G0 F3600 X97.977 Y103.068
G1 F3000 X86.537 Y91.629 E85.67155
G0 F3600 X86.537 Y91.063
G1 F3000 X97.977 Y102.502 E86.47867
G0 F3600 X97.977 Y101.937
G1 F3000 X86.7 Y90.66 E87.27432
G0 F3600 X87.264 Y90.658
G1 F3000 X97.977 Y101.371 E88.03018
G0 F3600 X97.977 Y100.805
G1 F3000 X87.828 Y90.656 E88.74625
G0 F3600 X88.392 Y90.655
G1 F3000 X97.977 Y100.24 E89.42252
G0 F3600 X97.977 Y99.674
G1 F3000 X88.956 Y90.653 E90.059
G0 F3600 X89.52 Y90.651
G1 F3000 X97.977 Y99.108 E90.65569
G0 F3600 X97.977 Y98.543
G1 F3000 X90.035 Y90.601 E91.21604
G0 F3600 X90.358 Y90.358
G1 F3000 X97.977 Y97.977 E91.7536
G0 F3600 X97.977 Y97.411
G1 F3000 X90.529 Y89.963 E92.2791
G0 F3600 X90.535 Y89.403
G1 F3000 X97.977 Y96.846 E92.80421
G0 F3600 X97.977 Y96.28
G1 F3000 X90.535 Y88.838 E93.32928
G0 F3600 X90.535 Y88.273
G1 F3000 X97.977 Y95.714 E93.85432
G0 F3600 X97.977 Y95.148
G1 F3000 X90.535 Y87.707 E94.37936
G0 F3600 X90.535 Y87.141
G1 F3000 X97.977 Y94.583 E94.90443
G0 F3600 X97.977 Y94.017
G1 F3000 X94.594 Y90.634 E95.14312
G0 F3600 X95.182 Y90.657
G1 F3000 X97.977 Y93.451 E95.34029
G0 F3600 X97.977 Y92.886
G1 F3000 X95.749 Y90.658 E95.49748
G0 F3600 X96.315 Y90.658
G1 F3000 X97.977 Y92.32 E95.61475
G0 F3600 X97.977 Y91.754
G1 F3000 X96.882 Y90.659 E95.692
G0 F3600 X97.449 Y90.66
G1 F3000 X97.977 Y91.189 E95.72929
G0 F3600 X97.858 Y91.189
G0 X93.93 Y90.709
G0 X93.858 Y90.037
G0 X93.997 Y90.037
G1 F3000 X90.536 Y86.576 E95.97349
G0 F3600 X90.536 Y86.011
G1 F3000 X93.978 Y89.453 E96.21634
G0 F3600 X93.978 Y88.887
G1 F3000 X90.752 Y85.661 E96.44395
G0 F3600 X91.317 Y85.661
G1 F3000 X93.978 Y88.321 E96.63166
G0 F3600 X93.978 Y87.755
G1 F3000 X91.883 Y85.661 E96.77944
G0 F3600 X92.449 Y85.661
G1 F3000 X93.978 Y87.189 E96.88728
G0 F3600 X93.978 Y86.624
G1 F3000 X93.014 Y85.661 E96.95526
G0 F3600 X93.58 Y85.661
G1 F3000 X93.978 Y86.058 E96.98331
G0 F3600 X93.558 Y86.081
G1 F1500 E90.48331
;MESH:Stand.stl
G0 F3600 X98.338 Y130.6
G0 X99.423 Y130.6
G0 X102.835 Y130.6
G0 X103.92 Y130.6
G0 X112.371 Y130.6
G0 X112.371 Y131.346
;TYPE:WALL-OUTER
G1 F1500 E96.98331
G1 F3000 X112.3 Y131.46 E96.99001
G1 X112.3 Y136.3 E97.23148
G1 X107.7 Y136.3 E97.46097
G1 X107.7 Y131.5 E97.70045
G1 X107.629 Y131.346 E97.70891
G1 X107.531 Y131.302 E97.71427
G1 X103.7 Y131.3 E97.9054
G1 X103.7 Y86.456 E100.14267
G1 X103.577 Y86.3 E100.15258
G1 X100.2 Y86.3 E100.32106
G1 X100.2 Y83.7 E100.45078
G1 X119.8 Y83.7 E101.42862
G1 X119.8 Y86.3 E101.55834
G1 X116.465 Y86.302 E101.72472
G1 X116.34 Y86.38 E101.73207
G1 X116.3 Y86.456 E101.73636
G1 X116.3 Y131.3 E103.97363
G1 X112.456 Y131.3 E104.16541
G1 X112.371 Y131.346 E104.17023
G0 F3600 X112.456 Y131.3
G0 X112.56 Y131.3
G0 X111.998 Y131.207
;TYPE:SKIN
G1 F3000 X111.921 Y131.473 E104.18405
G1 X111.92 Y135.92 E104.40591
G1 X108.08 Y135.92 E104.59749
G1 X108.079 Y131.473 E104.81935
G1 X108.002 Y131.208 E104.83312
G1 X107.849 Y131.035 E104.84464
G1 X107.605 Y130.929 E104.85791
G1 X104.08 Y130.92 E105.03378
G1 X104.08 Y86.42 E107.25389
G1 X103.935 Y86.121 E107.27047
G1 X103.727 Y85.969 E107.28332
G1 X103.549 Y85.925 E107.29247
G1 X100.58 Y85.92 E107.4406
G1 X100.58 Y84.08 E107.53239
G1 X119.42 Y84.08 E108.47232
G1 X119.42 Y85.92 E108.56412
G1 X116.398 Y85.927 E108.71489
G1 X116.256 Y85.973 E108.72234
G1 X116.063 Y86.123 E108.73453
G1 X115.92 Y86.42 E108.75098
G1 X115.92 Y130.92 E110.97109
G1 X112.404 Y130.927 E111.14651
G1 X112.208 Y130.999 E111.15692
G1 X111.998 Y131.207 E111.17167
G0 F3600 X111.6 Y131.207
G0 X108.566 Y135.6
G0 X108.566 Y135.719
G1 F3000 X108.279 Y135.432 E111.19192
G0 F3600 X108.279 Y134.866
G1 F3000 X109.132 Y135.719 E111.2521
G0 F3600 X109.697 Y135.719
G1 F3000 X108.278 Y134.3 E111.35222
G0 F3600 X108.278 Y133.734
G1 F3000 X110.263 Y135.719 E111.49227
G0 F3600 X110.829 Y135.719
G1 F3000 X108.277 Y133.168 E111.6723
G0 F3600 X108.277 Y132.602
G1 F3000 X111.394 Y135.719 E111.89222
G0 F3600 X111.72 Y135.479
G1 F3000 X108.277 Y132.035 E112.13518
G0 F3600 X108.277 Y131.47
G1 F3000 X111.72 Y134.913 E112.3781
G0 F3600 X111.721 Y134.348
G1 F3000 X104.279 Y126.907 E112.90314
G0 F3600 X104.279 Y127.472
G1 F3000 X107.529 Y130.722 E113.13244
G0 F3600 X106.963 Y130.722
G1 F3000 X104.279 Y128.038 E113.32181
G0 F3600 X104.279 Y128.604
G1 F3000 X106.396 Y130.721 E113.47118
G0 F3600 X105.83 Y130.72
G1 F3000 X104.279 Y129.17 E113.58057
G0 F3600 X104.279 Y129.735
G1 F3000 X105.264 Y130.72 E113.65007
G0 F3600 X104.697 Y130.719
G1 F3000 X104.279 Y130.301 E113.67956
G0 F3600 X104.4 Y130.301
G0 X104.4 Y126.341
G0 X104.279 Y126.341
G1 F3000 X111.721 Y133.783 E114.20464
G0 F3600 X111.722 Y133.218
G1 F3000 X104.279 Y125.775 E114.72978
G0 F3600 X104.279 Y125.21
G1 F3000 X111.722 Y132.652 E115.25489
G0 F3600 X111.722 Y132.087
G1 F3000 X104.279 Y124.644 E115.78003
G0 F3600 X104.279 Y124.078
G1 F3000 X111.722 Y131.521 E116.30518
G0 F3600 X111.85 Y131.083
G1 F3000 X104.279 Y123.513 E116.83932
G0 F3600 X104.279 Y122.947
G1 F3000 X112.149 Y130.816 E117.39455
G0 F3600 X112.625 Y130.727
G1 F3000 X104.279 Y122.381 E117.98341
G0 F3600 X104.279 Y121.816
G1 F3000 X113.19 Y130.726 E118.61209
G0 F3600 X113.754 Y130.724
G1 F3000 X104.279 Y121.25 E119.28057
G0 F3600 X104.279 Y120.684
G1 F3000 X114.317 Y130.722 E119.9888
G0 F3600 X114.882 Y130.721
G1 F3000 X104.279 Y120.119 E120.73687
G0 F3600 X104.279 Y119.553
G1 F3000 X115.446 Y130.72 E121.52476
