;FLAVOR:Marlin
;TIME:6258
;Filament used: 8.106m
;Layer height: 0.2
;MINX:41.64
;MINY:37.578
;MINZ:0.3
;MAXX:180.74
;MAXY:182.341
;MAXZ:19.9
;Generated with Cura_SteamEngine 5.4.0
M104 S230
M105
M109 S230
M82 ;absolute extrusion mode
G28 ;Home
G1 Z15.0 F6000 ;Move the platform down 15mm
;Prime the extruder
G92 E0
G1 F200 E3
G92 E0
G92 E0
G92 E0
G1 F1500 E-6.5
;LAYER_COUNT:99
;LAYER:0
M107
G0 F3600 X76.107 Y39.309 Z0.3
;TYPE:SKIRT
G1 F1500 E0
G1 F3000 X76.376 Y38.881 E0.02522
G1 X76.708 Y38.5 E0.05043
G1 X77.096 Y38.176 E0.07565
G1 X77.531 Y37.917 E0.10091
G1 X78.001 Y37.731 E0.12613
G1 X78.494 Y37.62 E0.15134
G1 X78.987 Y37.578 E0.17602
G1 X81.277 Y37.578 E0.29027
G1 X81.979 Y37.588 E0.3253
G1 X82.543 Y37.641 E0.35356
G1 X85.09 Y38.296 E0.48477
G1 X87.776 Y38.914 E0.62227
G1 X90.491 Y39.458 E0.76042
G1 X93.163 Y39.915 E0.89566
G1 X95.838 Y40.294 E1.03045
G1 X98.586 Y40.606 E1.16843
G1 X101.325 Y40.838 E1.30557
G1 X104.046 Y40.991 E1.44153
G1 X108.148 Y41.078 E1.64623
G1 X126.277 Y41.078 E2.55069
G1 X126.98 Y41.088 E2.58576
G1 X127.483 Y41.135 E2.61097
G1 X127.973 Y41.261 E2.63621
G1 X128.436 Y41.463 E2.66141
G1 X128.982 Y41.829 E2.6942
G1 X129.952 Y42.637 E2.75719
G1 X132.111 Y44.385 E2.89578
G1 X133.244 Y45.249 E2.96686
G1 X133.999 Y45.841 E3.01473
G1 X136.23 Y47.859 E3.16481
G1 X138.282 Y49.612 E3.29946
G1 X140.438 Y51.35 E3.43762
G1 X142.614 Y53.005 E3.57401
G1 X144.838 Y54.601 E3.71058
G1 X147.096 Y56.124 E3.84646
G1 X149.39 Y57.58 E3.98202
G1 X152.025 Y59.144 E4.13489
G1 X152.894 Y59.644 E4.18491
G1 X153.871 Y60.248 E4.24221
G1 X154.542 Y60.684 E4.28214
G1 X155.024 Y61.067 E4.31285
G1 X155.541 Y61.568 E4.34877
G1 X156.46 Y62.503 E4.41418
G1 X158.414 Y64.573 E4.55619
G1 X160.338 Y66.498 E4.69198
G1 X162.315 Y68.367 E4.82771
G1 X164.365 Y70.198 E4.96484
G1 X166.465 Y71.968 E5.10186
G1 X168.593 Y73.663 E5.23759
G1 X170.779 Y75.303 E5.37393
G1 X173.037 Y76.902 E5.51197
G1 X175.296 Y78.407 E5.64739
G1 X177.639 Y79.872 E5.78525
G1 X179.166 Y80.781 E5.87391
G1 X179.579 Y81.073 E5.89914
G1 X179.94 Y81.426 E5.92433
G1 X180.242 Y81.832 E5.94958
G1 X180.475 Y82.28 E5.97477
G1 X180.636 Y82.76 E6.00003
G1 X180.74 Y83.52 E6.0383
G1 X180.74 Y85.864 E6.15524
G1 X180.73 Y86.566 E6.19027
G1 X180.677 Y87.13 E6.21853
G1 X180.022 Y89.677 E6.34974
G1 X179.404 Y92.363 E6.48724
G1 X178.86 Y95.078 E6.62539
G1 X178.403 Y97.75 E6.76063
G1 X178.026 Y100.408 E6.89456
G1 X177.712 Y103.173 E7.0334
G1 X177.48 Y105.912 E7.17054
G1 X177.327 Y108.633 E7.3065
G1 X177.24 Y112.714 E7.51015
G1 X177.24 Y130.864 E8.41566
G1 X177.23 Y131.567 E8.45073
G1 X177.183 Y132.07 E8.47594
G1 X177.057 Y132.56 E8.50118
G1 X176.855 Y133.023 E8.52638
G1 X176.489 Y133.569 E8.55917
G1 X175.653 Y134.573 E8.62436
G1 X173.939 Y136.689 E8.76021
G1 X173.098 Y137.794 E8.82949
G1 X172.401 Y138.68 E8.88573
G1 X171.66 Y139.392 E8.937
G1 X170.879 Y140.119 E8.99023
G1 X168.905 Y142.063 E9.12846
G1 X167.038 Y144.01 E9.26303
G1 X165.193 Y146.045 E9.40008
G1 X163.398 Y148.141 E9.53775
G1 X161.694 Y150.25 E9.67302
G1 X160.029 Y152.435 E9.81007
G1 X158.435 Y154.652 E9.9463
G1 X157.199 Y156.492 E10.05689
G1 X156.768 Y157.116 E10.09472
G1 X156.417 Y157.54 E10.12219
G1 X155.511 Y158.461 E10.18664
G1 X155.028 Y158.93 E10.22023
G1 X154.543 Y159.317 E10.25118
G1 X153.96 Y159.696 E10.28588
G1 X152.793 Y160.413 E10.35421
G1 X151.982 Y160.876 E10.4008
G1 X149.573 Y162.296 E10.54031
G1 X147.259 Y163.747 E10.67658
G1 X145.002 Y165.254 E10.81197
G1 X142.746 Y166.855 E10.94999
G1 X140.562 Y168.499 E11.08637
G1 X138.434 Y170.198 E11.22222
G1 X136.316 Y171.989 E11.3606
G1 X134.87 Y173.273 E11.45708
G1 X133.97 Y174.089 E11.51769
G1 X133.116 Y174.74 E11.57126
G1 X130.968 Y176.428 E11.70756
G1 X128.959 Y178.094 E11.83776
G1 X128.546 Y178.385 E11.86297
G1 X128.092 Y178.607 E11.88818
G1 X127.608 Y178.755 E11.91343
G1 X126.918 Y178.841 E11.94812
G1 X108.171 Y178.841 E12.88342
G1 X105.374 Y178.881 E13.02297
G1 X102.657 Y178.996 E13.15865
G1 X99.911 Y179.191 E13.29599
G1 X97.205 Y179.459 E13.43165
G1 X94.482 Y179.807 E13.56861
G1 X91.781 Y180.232 E13.70502
G1 X89.073 Y180.735 E13.84243
G1 X86.441 Y181.301 E13.97675
G1 X83.607 Y181.997 E14.12234
G1 X82.715 Y182.229 E14.16832
G1 X81.939 Y182.34 E14.20743
G1 X79.582 Y182.341 E14.32502
G1 X78.884 Y182.331 E14.35985
G1 X78.381 Y182.284 E14.38505
G1 X77.891 Y182.158 E14.41029
G1 X77.427 Y181.956 E14.43554
G1 X77.001 Y181.684 E14.46076
G1 X76.623 Y181.349 E14.48596
G1 X76.303 Y180.958 E14.51116
G1 X76.048 Y180.521 E14.5364
G1 X75.835 Y179.943 E14.56714
G1 X75.502 Y178.674 E14.63259
G1 X74.778 Y176.054 E14.7682
G1 X73.965 Y173.406 E14.9064
G1 X73.092 Y170.825 E15.04233
G1 X72.133 Y168.236 E15.18007
G1 X71.126 Y165.734 E15.31463
G1 X70.012 Y163.18 E15.45364
G1 X68.865 Y160.739 E15.5882
G1 X67.629 Y158.293 E15.72493
G1 X66.323 Y155.878 E15.8619
G1 X64.945 Y153.493 E15.99932
G1 X63.526 Y151.192 E16.13419
G1 X62.014 Y148.888 E16.27168
G1 X60.442 Y146.635 E16.40874
G1 X58.801 Y144.419 E16.54631
G1 X57.146 Y142.31 E16.68006
G1 X55.376 Y140.183 E16.81811
G1 X53.561 Y138.124 E16.95505
G1 X51.683 Y136.109 E17.09247
G1 X49.928 Y134.321 E17.21746
G1 X49.24 Y133.419 E17.27406
G1 X47.55 Y131.268 E17.41053
G1 X45.888 Y129.265 E17.54038
G1 X45.596 Y128.851 E17.56566
G1 X45.374 Y128.397 E17.59087
G1 X45.226 Y127.914 E17.61608
G1 X45.14 Y127.223 E17.65082
G1 X45.14 Y108.475 E18.58616
G1 X45.1 Y105.675 E18.72586
G1 X44.985 Y102.961 E18.86139
G1 X44.79 Y100.214 E18.99878
G1 X44.522 Y97.509 E19.13439
G1 X44.174 Y94.785 E19.2714
G1 X43.749 Y92.085 E19.40776
G1 X43.246 Y89.376 E19.54523
G1 X42.683 Y86.759 E19.67877
G1 X41.983 Y83.911 E19.82509
G1 X41.753 Y83.029 E19.87057
G1 X41.641 Y82.251 E19.90978
G1 X41.64 Y79.882 E20.02797
G1 X41.651 Y79.179 E20.06305
G1 X41.699 Y78.676 E20.08826
G1 X41.826 Y78.186 E20.11351
G1 X42.028 Y77.723 E20.13871
G1 X42.3 Y77.297 E20.16393
G1 X42.636 Y76.919 E20.18916
G1 X43.059 Y76.578 E20.21627
G1 X43.807 Y76.072 E20.26132
G1 X46.102 Y74.471 E20.40093
G1 X48.289 Y72.852 E20.53668
G1 X50.441 Y71.164 E20.67313
G1 X52.566 Y69.395 E20.81108
G1 X54.59 Y67.612 E20.94565
G1 X56.619 Y65.72 E21.08406
G1 X58.556 Y63.809 E21.21981
G1 X60.439 Y61.843 E21.35562
G1 X62.297 Y59.79 E21.49377
G1 X64.063 Y57.723 E21.6294
G1 X65.795 Y55.576 E21.76702
G1 X67.432 Y53.423 E21.90196
G1 X69.041 Y51.182 E22.0396
G1 X70.573 Y48.914 E22.17614
G1 X72.038 Y46.608 E22.31244
G1 X73.431 Y44.27 E22.44822
G1 X74.778 Y41.859 E22.58601
G1 X76.107 Y39.309 E22.72947
G1 F1500 E16.22947
;MESH:Stand.stl(3)
G0 F3600 X82.591 Y40.125
G0 X82.591 Y43.625
G0 X81.524 Y44.692
G0 X126.038 Y48.407
G0 X126.784 Y48.407
;TYPE:WALL-OUTER
G1 F1500 E22.72947
G1 F3000 X126.92 Y48.478 E22.73712
G1 X131.738 Y48.478 E22.97749
G1 X131.738 Y53.078 E23.20699
G1 X126.92 Y53.078 E23.44736
G1 X126.784 Y53.149 E23.45501
G1 X126.74 Y53.247 E23.46037
G1 X126.738 Y57.078 E23.6515
G1 X81.894 Y57.078 E25.88878
G1 X81.738 Y57.201 E25.89869
G1 X81.738 Y60.578 E26.06717
G1 X79.138 Y60.578 E26.19688
G1 X79.138 Y40.978 E27.17473
G1 X81.738 Y40.978 E27.30445
G1 X81.74 Y44.313 E27.47083
G1 X81.818 Y44.438 E27.47818
G1 X81.894 Y44.478 E27.48246
G1 X126.738 Y44.478 E29.71974
G1 X126.738 Y48.321 E29.91147
G1 X126.784 Y48.407 E29.91633
G0 F3600 X126.738 Y48.321
G0 X126.738 Y48.218
G0 X126.038 Y48.218
G0 X81.11 Y56.45
G0 X81.038 Y57.051
G0 X81.407 Y57.051
;TYPE:SKIN
G1 F3000 X81.363 Y57.229 E29.92548
G1 X81.358 Y60.198 E30.07361
G1 X79.518 Y60.198 E30.1654
G1 X79.518 Y41.358 E31.10534
G1 X81.358 Y41.358 E31.19713
G1 X81.365 Y44.38 E31.3479
G1 X81.411 Y44.522 E31.35535
G1 X81.561 Y44.715 E31.36754
G1 X81.858 Y44.858 E31.38399
G1 X126.358 Y44.858 E33.6041
G1 X126.365 Y48.373 E33.77947
G1 X126.447 Y48.584 E33.79076
G1 X126.643 Y48.777 E33.80449
G1 X126.875 Y48.855 E33.8167
G1 X131.358 Y48.858 E34.04035
G1 X131.358 Y52.698 E34.23193
G1 X126.875 Y52.701 E34.45559
G1 X126.642 Y52.779 E34.46785
G1 X126.508 Y52.886 E34.4764
G1 X126.367 Y53.173 E34.49236
G1 X126.358 Y56.698 E34.66822
G1 X81.858 Y56.698 E36.88834
G1 X81.559 Y56.843 E36.90491
G1 X81.407 Y57.051 E36.91777
G0 F3600 X81.038 Y57.051
G0 X79.797 Y59.878
G0 X79.797 Y59.998
G1 F3000 X79.717 Y59.918 E36.92341
G0 F3600 X79.717 Y59.353
G1 F3000 X80.362 Y59.998 E36.96892
G0 F3600 X80.928 Y59.998
G1 F3000 X79.717 Y58.787 E37.05436
G0 F3600 X79.717 Y58.221
G1 F3000 X81.157 Y59.661 E37.15596
G0 F3600 X81.157 Y59.095
G1 F3000 X79.717 Y57.656 E37.25753
G0 F3600 X79.717 Y57.09
G1 F3000 X81.157 Y58.53 E37.35913
G0 F3600 X81.157 Y57.964
G1 F3000 X79.717 Y56.524 E37.46073
G0 F3600 X79.717 Y55.959
G1 F3000 X81.157 Y57.398 E37.56229
G0 F3600 X81.252 Y56.927
G1 F3000 X79.717 Y55.393 E37.67056
G0 F3600 X79.717 Y54.827
G1 F3000 X81.516 Y56.626 E37.79749
G0 F3600 X81.953 Y56.497
G1 F3000 X79.717 Y54.261 E37.95525
G0 F3600 X79.717 Y53.696
G1 F3000 X82.519 Y56.497 E38.15291
G0 F3600 X83.085 Y56.497
G1 F3000 X79.717 Y53.13 E38.3905
G0 F3600 X79.717 Y52.564
G1 F3000 X83.65 Y56.497 E38.668
G0 F3600 X84.216 Y56.497
G1 F3000 X79.717 Y51.999 E38.98539
G0 F3600 X79.717 Y51.433
G1 F3000 X84.782 Y56.497 E39.34272
G0 F3600 X85.347 Y56.497
G1 F3000 X79.717 Y50.867 E39.73995
G0 F3600 X79.717 Y50.302
G1 F3000 X85.913 Y56.497 E40.17707
G0 F3600 X86.479 Y56.497
G1 F3000 X79.717 Y49.736 E40.65413
G0 F3600 X79.717 Y49.17
G1 F3000 X87.044 Y56.497 E41.17109
G0 F3600 X87.61 Y56.497
G1 F3000 X79.717 Y48.605 E41.72795
G0 F3600 X79.717 Y48.039
G1 F3000 X88.176 Y56.497 E42.32474
G0 F3600 X88.741 Y56.497
G1 F3000 X79.717 Y47.473 E42.96144
G0 F3600 X79.717 Y46.908
G1 F3000 X89.307 Y56.497 E43.63803
G0 F3600 X89.873 Y56.497
G1 F3000 X79.717 Y46.342 E44.35455
G0 F3600 X79.717 Y45.776
G1 F3000 X90.438 Y56.497 E45.11098
G0 F3600 X91.004 Y56.497
G1 F3000 X79.717 Y45.21 E45.90734
G0 F3600 X79.717 Y44.645
G1 F3000 X91.57 Y56.497 E46.74359
G0 F3600 X92.136 Y56.497
G1 F3000 X79.717 Y44.079 E47.61979
G0 F3600 X79.717 Y43.513
G1 F3000 X92.701 Y56.497 E48.53588
G0 F3600 X93.267 Y56.497
G1 F3000 X81.818 Y45.049 E49.34363
G0 F3600 X82.393 Y45.058
G1 F3000 X93.833 Y56.497 E50.15075
G0 F3600 X94.398 Y56.497
G1 F3000 X82.959 Y45.058 E50.95783
G0 F3600 X83.524 Y45.058
G1 F3000 X94.964 Y56.497 E51.76495
G0 F3600 X95.53 Y56.497
G1 F3000 X84.09 Y45.058 E52.57207
G0 F3600 X84.656 Y45.058
G1 F3000 X96.095 Y56.497 E53.37915
G0 F3600 X96.661 Y56.497
G1 F3000 X85.221 Y45.058 E54.18627
G0 F3600 X85.787 Y45.058
G1 F3000 X97.227 Y56.497 E54.99339
G0 F3600 X97.792 Y56.497
G1 F3000 X86.353 Y45.058 E55.80047
G0 F3600 X86.918 Y45.058
G1 F3000 X98.358 Y56.497 E56.60759
G0 F3600 X98.924 Y56.497
G1 F3000 X87.484 Y45.058 E57.41471
G0 F3600 X88.05 Y45.058
G1 F3000 X99.489 Y56.497 E58.22179
G0 F3600 X100.055 Y56.497
G1 F3000 X88.616 Y45.058 E59.02888
G0 F3600 X89.181 Y45.058
G1 F3000 X100.621 Y56.497 E59.836
G0 F3600 X101.186 Y56.497
G1 F3000 X89.747 Y45.058 E60.64308
G0 F3600 X90.313 Y45.058
G1 F3000 X101.752 Y56.497 E61.45016
G0 F3600 X102.318 Y56.497
G1 F3000 X90.878 Y45.058 E62.25728
G0 F3600 X91.444 Y45.058
G1 F3000 X102.884 Y56.497 E63.0644
G0 F3600 X103.449 Y56.497
G1 F3000 X92.01 Y45.058 E63.87148
G0 F3600 X92.575 Y45.058
G1 F3000 X104.015 Y56.497 E64.6786
G0 F3600 X104.581 Y56.497
G1 F3000 X93.141 Y45.058 E65.48572
G0 F3600 X93.707 Y45.058
G1 F3000 X105.146 Y56.497 E66.2928
G0 F3600 X105.712 Y56.497
G1 F3000 X94.272 Y45.058 E67.09992
G0 F3600 X94.838 Y45.058
G1 F3000 X106.278 Y56.497 E67.90704
G0 F3600 X106.843 Y56.497
G1 F3000 X95.404 Y45.058 E68.71412
G0 F3600 X95.969 Y45.058
G1 F3000 X107.409 Y56.497 E69.52124
G0 F3600 X107.975 Y56.497
G1 F3000 X96.535 Y45.058 E70.32836
G0 F3600 X97.101 Y45.058
G1 F3000 X108.54 Y56.497 E71.13544
G0 F3600 X109.106 Y56.497
G1 F3000 X97.667 Y45.058 E71.94253
G0 F3600 X98.232 Y45.058
G1 F3000 X109.672 Y56.497 E72.74964
G0 F3600 X110.237 Y56.497
G1 F3000 X98.798 Y45.058 E73.55673
G0 F3600 X99.364 Y45.058
G1 F3000 X110.803 Y56.497 E74.36381
G0 F3600 X111.369 Y56.497
G1 F3000 X99.929 Y45.058 E75.17093
G0 F3600 X100.495 Y45.058
G1 F3000 X111.935 Y56.497 E75.97805
G0 F3600 X112.5 Y56.497
G1 F3000 X101.061 Y45.058 E76.78513
G0 F3600 X101.626 Y45.058
G1 F3000 X113.066 Y56.497 E77.59225
G0 F3600 X113.632 Y56.497
G1 F3000 X102.192 Y45.058 E78.39937
G0 F3600 X102.758 Y45.058
G1 F3000 X114.197 Y56.497 E79.20645
G0 F3600 X114.763 Y56.497
G1 F3000 X103.323 Y45.058 E80.01357
G0 F3600 X103.889 Y45.058
G1 F3000 X115.329 Y56.497 E80.82069
G0 F3600 X115.894 Y56.497
G1 F3000 X104.455 Y45.058 E81.62777
G0 F3600 X105.02 Y45.058
G1 F3000 X116.46 Y56.497 E82.43489
G0 F3600 X117.026 Y56.497
G1 F3000 X105.586 Y45.058 E83.24201
G0 F3600 X106.152 Y45.058
G1 F3000 X117.591 Y56.497 E84.04909
G0 F3600 X118.157 Y56.497
G1 F3000 X106.717 Y45.058 E84.85621
G0 F3600 X107.283 Y45.058
G1 F3000 X118.723 Y56.497 E85.66333
G0 F3600 X119.288 Y56.497
G1 F3000 X107.849 Y45.058 E86.47041
G0 F3600 X108.415 Y45.058
G1 F3000 X119.854 Y56.497 E87.2775
G0 F3600 X120.42 Y56.497
G1 F3000 X108.98 Y45.058 E88.08461
G0 F3600 X109.546 Y45.058
G1 F3000 X120.985 Y56.497 E88.8917
G0 F3600 X121.551 Y56.497
G1 F3000 X110.112 Y45.058 E89.69878
G0 F3600 X110.677 Y45.058
G1 F3000 X122.117 Y56.497 E90.5059
G0 F3600 X122.683 Y56.497
G1 F3000 X111.243 Y45.058 E91.31302
G0 F3600 X111.809 Y45.058
G1 F3000 X123.248 Y56.497 E92.1201
G0 F3600 X123.814 Y56.497
G1 F3000 X112.374 Y45.058 E92.92722
G0 F3600 X112.94 Y45.058
G1 F3000 X124.38 Y56.497 E93.73434
G0 F3600 X124.945 Y56.497
G1 F3000 X113.506 Y45.058 E94.54142
G0 F3600 X114.071 Y45.058
G1 F3000 X125.511 Y56.497 E95.34854
G0 F3600 X126.077 Y56.497
G1 F3000 X114.637 Y45.058 E96.15566
G0 F3600 X115.203 Y45.058
G1 F3000 X126.158 Y56.013 E96.92859
G0 F3600 X126.159 Y55.448
G1 F3000 X115.768 Y45.058 E97.6617
G0 F3600 X116.334 Y45.058
G1 F3000 X126.159 Y54.883 E98.35491
G0 F3600 X126.16 Y54.318
G1 F3000 X116.9 Y45.058 E99.00825
G0 F3600 X117.465 Y45.058
G1 F3000 X126.161 Y53.753 E99.62176
G0 F3600 X126.161 Y53.187
G1 F3000 X118.031 Y45.058 E100.19534
G0 F3600 X118.597 Y45.058
G1 F3000 X126.338 Y52.799 E100.74151
G0 F3600 X126.668 Y52.564
G1 F3000 X119.163 Y45.058 E101.27107
G0 F3600 X119.728 Y45.058
G1 F3000 X127.169 Y52.499 E101.79607
G0 F3600 X127.735 Y52.499
G1 F3000 X120.294 Y45.058 E102.32107
G0 F3600 X120.86 Y45.058
G1 F3000 X128.3 Y52.498 E102.846
G0 F3600 X128.865 Y52.498
G1 F3000 X121.425 Y45.058 E103.37094
G0 F3600 X121.991 Y45.058
G1 F3000 X129.431 Y52.498 E103.89587
G0 F3600 X129.996 Y52.497
G1 F3000 X122.557 Y45.058 E104.42073
G0 F3600 X123.122 Y45.058
G1 F3000 X126.166 Y48.102 E104.6355
G0 F3600 X126.165 Y47.535
G1 F3000 X123.688 Y45.058 E104.81027
G0 F3600 X124.254 Y45.058
G1 F3000 X126.163 Y46.967 E104.94496
G0 F3600 X126.161 Y46.4
G1 F3000 X124.819 Y45.058 E105.03964
G0 F3600 X125.385 Y45.058
G1 F3000 X126.159 Y45.832 E105.09425
G0 F3600 X126.157 Y45.264
G1 F3000 X125.951 Y45.058 E105.10879
G0 F3600 X125.951 Y45.178
G0 X126.11 Y49.106
G0 X127.121 Y49.178
G0 X127.121 Y49.056
G1 F3000 X130.562 Y52.497 E105.35157
G0 F3600 X131.128 Y52.497
G1 F3000 X127.687 Y49.056 E105.59435
G0 F3600 X128.252 Y49.056
G1 F3000 X131.157 Y51.961 E105.79931
G0 F3600 X131.157 Y51.396
G1 F3000 X128.818 Y49.056 E105.96438
G0 F3600 X129.384 Y49.057
G1 F3000 X131.157 Y50.83 E106.08947
G0 F3600 X131.157 Y50.264
G1 F3000 X129.95 Y49.057 E106.17463
G0 F3600 X130.516 Y49.057
G1 F3000 X131.157 Y49.699 E106.21989
G0 F3600 X131.157 Y49.133
G1 F3000 X131.082 Y49.057 E106.22522
G0 F3600 X131.082 Y49.178
G0 X126.11 Y49.106
G0 X81.11 Y45.106
G0 X81.038 Y44.397
G0 X81.167 Y44.397
G1 F3000 X79.717 Y42.948 E106.32749
G0 F3600 X79.717 Y42.382
G1 F3000 X81.165 Y43.83 E106.42965
G0 F3600 X81.163 Y43.262
G1 F3000 X79.717 Y41.816 E106.53168
G0 F3600 X80.024 Y41.558
G1 F3000 X81.161 Y42.695 E106.6119
G0 F3600 X81.159 Y42.127
G1 F3000 X80.59 Y41.558 E106.65204
G1 X80.52 Y41.488
G0 F3600 X80.52 Y41.978
G1 F1500 E100.15204
;MESH:Stand Brace.stl
G0 F3600 X81.51 Y44.706
G0 X126.524 Y56.864
G0 X126.524 Y63.1
G0 X127.452 Y63.063
G0 X135.928 Y63.072
G0 X137.072 Y141.928
G0 X154.428 Y141.928
G0 X154.161 Y141.62
;TYPE:WALL-OUTER
G1 F1500 E106.65204
G1 F3000 X154.198 Y141.535 E106.65667
G1 X154.2 Y78.5 E109.8015
G1 X154.161 Y78.379 E109.80784
G1 X154.059 Y78.3 E109.81428
